;FLAVOR:Marlin
;TIME:687
;Filament used: 0.50547m
;Layer height: 0.2
;MINX:14.993
;MINY:69.666
;MINZ:0.2
;MAXX:85.627
;MAXY:140.334
;MAXZ:2.2
;TARGET_MACHINE.NAME:Creality Ender-3 V3 SE
;Generated with Cura_SteamEngine 5.8.1
M82 ;absolute extrusion mode
M220 S100 ;Reset Feedrate
M221 S100 ;Reset Flowrate

G28 ;Home

M420 S1; Use saved mesh leveling data

G92 E0 ;Reset Extruder
G1 Z2.0 F3000 ;Move Z Axis up
G1 X-3 Y20 Z0.28 F5000.0 ;Move to start position
M190 S65 ; Set bed temperature and wait
M109 S205.0 ; Set hotend temperature and wait
G1 X-3 Y100.0 Z0.28 F1500.0 E15 ;Draw the first line
G1 X-2 Y100.0 Z0.28 F5000.0 ;Move to side a little
G1 X-2 Y20 Z0.28 F1500.0 E30 ;Draw the second line
G92 E0 ;Reset Extruder
G1 E-1.0000 F1800 ;Retract a bit
G1 Z2.0 F3000 ;Move Z Axis up
G1 E0.0000 F1800 

G92 E0
G92 E0
G1 F2400 E-0.8
;LAYER_COUNT:10
;LAYER:0
M107
G1 F300 Z0.4
G0 F9000 X41.3 Y70.476 Z0.4
;TYPE:SKIRT
G1 F300 Z0.2
G1 F2400 E0
G1 F1800 X43.606 Y69.814 E0.0798
G1 X45.934 Y69.666 E0.15738
G1 X48.4 Y70.101 E0.24067
G1 X50.397 Y70.985 E0.3133
G1 X51.299 Y70.472 E0.34782
G1 X53.597 Y69.814 E0.42732
G1 X55.933 Y69.666 E0.50517
G1 X58.403 Y70.102 E0.5886
G1 X60.594 Y71.072 E0.66829
G1 X62.516 Y72.538 E0.74869
G1 X64.031 Y74.357 E0.82743
G1 X65.084 Y76.506 E0.90702
G1 X65.627 Y78.818 E0.98601
G1 X65.627 Y79.685 E1.01485
G1 X65.934 Y79.666 E1.02508
G1 X68.404 Y80.102 E1.1085
G1 X70.594 Y81.072 E1.18816
G1 X72.516 Y82.538 E1.26856
G1 X74.031 Y84.357 E1.3473
G1 X75.084 Y86.506 E1.4269
G1 X75.627 Y88.818 E1.50589
G1 X75.627 Y89.685 E1.53472
G1 X75.934 Y89.666 E1.54495
G1 X78.404 Y90.102 E1.62837
G1 X80.594 Y91.072 E1.70804
G1 X82.516 Y92.538 E1.78844
G1 X84.031 Y94.357 E1.86717
G1 X85.084 Y96.506 E1.94677
G1 X85.627 Y98.818 E2.02576
G1 X85.627 Y101.193 E2.10475
G1 X85.076 Y103.523 E2.18439
G1 X84.338 Y104.986 E2.23889
G1 X85.084 Y106.506 E2.2952
G1 X85.627 Y108.818 E2.37419
G1 X85.627 Y111.193 E2.45318
G1 X85.076 Y113.523 E2.53282
G1 X83.967 Y115.728 E2.61491
G1 X82.373 Y117.6 E2.69669
G1 X80.461 Y118.994 E2.77539
G1 X78.368 Y119.904 E2.8513
G1 X75.94 Y120.326 E2.93326
G1 X75.627 Y120.317 E2.94368
G1 X75.627 Y121.193 E2.97281
G1 X75.076 Y123.523 E3.05245
G1 X73.967 Y125.728 E3.13454
G1 X72.373 Y127.6 E3.21632
G1 X70.461 Y128.994 E3.29502
G1 X68.368 Y129.904 E3.37092
G1 X65.94 Y130.326 E3.45289
G1 X65.627 Y130.317 E3.46331
G1 X65.627 Y131.193 E3.49244
G1 X65.076 Y133.523 E3.57207
G1 X63.967 Y135.728 E3.65417
G1 X62.373 Y137.6 E3.73594
G1 X60.461 Y138.994 E3.81464
G1 X58.368 Y139.904 E3.89055
G1 X55.892 Y140.334 E3.97414
G1 X53.489 Y140.178 E4.05423
G1 X51.294 Y139.516 E4.13048
G1 X50.409 Y139.014 E4.16432
G1 X48.366 Y139.905 E4.23846
G1 X45.892 Y140.334 E4.32197
G1 X43.489 Y140.178 E4.40206
G1 X41.294 Y139.516 E4.47832
G1 X39.221 Y138.339 E4.5576
G1 X37.395 Y136.617 E4.64108
G1 X36.108 Y134.664 E4.71888
G1 X35.25 Y132.327 E4.80168
G1 X35.027 Y130.277 E4.87026
G1 X33.489 Y130.178 E4.92152
G1 X31.294 Y129.516 E4.99778
G1 X29.221 Y128.339 E5.07706
G1 X27.395 Y126.617 E5.16054
G1 X26.108 Y124.664 E5.23834
G1 X25.25 Y122.327 E5.32114
G1 X25.027 Y120.277 E5.38972
G1 X23.489 Y120.178 E5.44098
G1 X21.294 Y119.516 E5.51724
G1 X19.221 Y118.339 E5.59652
G1 X17.395 Y116.617 E5.68
G1 X16.108 Y114.664 E5.7578
G1 X15.25 Y112.327 E5.8406
G1 X14.993 Y109.965 E5.91962
G1 X15.288 Y107.597 E5.99899
G1 X16.102 Y105.359 E6.0782
G1 X16.333 Y105.005 E6.09226
G1 X16.11 Y104.669 E6.10567
G1 X15.25 Y102.327 E6.18865
G1 X14.993 Y99.965 E6.26767
G1 X15.288 Y97.597 E6.34704
G1 X16.105 Y95.347 E6.42666
G1 X17.391 Y93.386 E6.50466
G1 X19.23 Y91.651 E6.58875
G1 X21.3 Y90.476 E6.66791
G1 X23.606 Y89.814 E6.74771
G1 X25.023 Y89.725 E6.79493
G1 X25.288 Y87.597 E6.86626
G1 X26.105 Y85.347 E6.94587
G1 X27.391 Y83.386 E7.02387
G1 X29.23 Y81.651 E7.10796
G1 X31.3 Y80.476 E7.18713
G1 X33.606 Y79.814 E7.26692
G1 X35.023 Y79.725 E7.31415
G1 X35.288 Y77.597 E7.38547
G1 X36.105 Y75.347 E7.46509
G1 X37.391 Y73.386 E7.54308
G1 X39.23 Y71.651 E7.62717
G1 X41.3 Y70.476 E7.70634
G0 F9000 X41.458 Y70.846
G1 F1800 X43.673 Y70.21 E7.78299
G1 X45.911 Y70.068 E7.85757
G1 X48.282 Y70.486 E7.93765
G1 X50.42 Y71.433 E8.01542
G1 X51.455 Y70.844 E8.05503
G1 X53.668 Y70.21 E8.1316
G1 X55.91 Y70.068 E8.20632
G1 X58.285 Y70.487 E8.28653
G1 X60.389 Y71.419 E8.36307
G1 X62.239 Y72.83 E8.44045
G1 X63.693 Y74.576 E8.51602
G1 X64.705 Y76.642 E8.59254
G1 X65.227 Y78.863 E8.66842
G1 X65.227 Y80.111 E8.70993
G1 X65.91 Y80.068 E8.73269
G1 X68.285 Y80.487 E8.81291
G1 X70.389 Y81.419 E8.88944
G1 X72.239 Y82.83 E8.96683
G1 X73.693 Y84.576 E9.0424
G1 X74.705 Y86.642 E9.11892
G1 X75.227 Y88.863 E9.1948
G1 X75.227 Y90.111 E9.23631
G1 X75.91 Y90.068 E9.25907
G1 X78.285 Y90.487 E9.33929
G1 X80.389 Y91.419 E9.41582
G1 X82.239 Y92.83 E9.49321
G1 X83.693 Y94.576 E9.56878
G1 X84.705 Y96.642 E9.6453
G1 X85.227 Y98.863 E9.72118
G1 X85.227 Y101.148 E9.79718
G1 X84.698 Y103.385 E9.87363
G1 X83.892 Y104.984 E9.93319
G1 X84.705 Y106.642 E9.99461
G1 X85.227 Y108.863 E10.07049
G1 X85.227 Y111.148 E10.14649
G1 X84.698 Y113.385 E10.22295
G1 X83.631 Y115.507 E10.30195
G1 X82.101 Y117.303 E10.38042
G1 X80.262 Y118.644 E10.45612
G1 X78.25 Y119.519 E10.52909
G1 X75.872 Y119.932 E10.60937
G1 X75.227 Y119.89 E10.63087
G1 X75.227 Y121.148 E10.67271
G1 X74.698 Y123.385 E10.74916
G1 X73.631 Y125.507 E10.82816
G1 X72.101 Y127.303 E10.90663
G1 X70.262 Y128.644 E10.98233
G1 X68.25 Y129.519 E11.05531
G1 X65.872 Y129.932 E11.13558
G1 X65.227 Y129.89 E11.15708
G1 X65.227 Y131.148 E11.19892
G1 X64.698 Y133.385 E11.27538
G1 X63.631 Y135.507 E11.35438
G1 X62.101 Y137.303 E11.43285
G1 X60.262 Y138.644 E11.50855
G1 X58.25 Y139.519 E11.58152
G1 X55.871 Y139.932 E11.66183
G1 X53.561 Y139.782 E11.73883
G1 X51.452 Y139.146 E11.81209
G1 X50.397 Y138.547 E11.85244
G1 X50.223 Y138.661 E11.85936
G1 X48.248 Y139.52 E11.93099
G1 X45.871 Y139.932 E12.01123
G1 X43.561 Y139.782 E12.08822
G1 X41.455 Y139.147 E12.16138
G1 X39.458 Y138.013 E12.23777
G1 X37.704 Y136.359 E12.31795
G1 X36.469 Y134.485 E12.3926
G1 X35.643 Y132.234 E12.47235
G1 X35.389 Y129.9 E12.55044
G1 X33.561 Y129.782 E12.61136
G1 X31.455 Y129.147 E12.68452
G1 X29.458 Y128.013 E12.76091
G1 X27.704 Y126.359 E12.84109
G1 X26.469 Y124.485 E12.91574
G1 X25.643 Y122.234 E12.99549
G1 X25.389 Y119.9 E13.07358
G1 X23.561 Y119.782 E13.1345
G1 X21.455 Y119.147 E13.20766
G1 X19.458 Y118.013 E13.28405
G1 X17.704 Y116.359 E13.36423
G1 X16.469 Y114.485 E13.43888
G1 X15.643 Y112.234 E13.51863
G1 X15.396 Y109.967 E13.59448
G1 X15.679 Y107.692 E13.67073
G1 X16.463 Y105.536 E13.74703
G1 X16.812 Y105.004 E13.76819
G1 X16.471 Y104.49 E13.78871
G1 X15.643 Y102.234 E13.86864
G1 X15.396 Y99.967 E13.94448
G1 X15.679 Y97.692 E14.02073
G1 X16.465 Y95.528 E14.09731
G1 X17.701 Y93.643 E14.17228
G1 X19.469 Y91.975 E14.25312
G1 X21.458 Y90.846 E14.32919
G1 X23.673 Y90.21 E14.40584
G1 X25.411 Y90.101 E14.46376
G1 X25.402 Y89.92 E14.46979
G1 X25.679 Y87.692 E14.54446
G1 X26.465 Y85.528 E14.62104
G1 X27.701 Y83.643 E14.69601
G1 X29.469 Y81.975 E14.77685
G1 X31.458 Y80.846 E14.85292
G1 X33.673 Y80.21 E14.92957
G1 X35.411 Y80.101 E14.98749
G1 X35.402 Y79.92 E14.99352
G1 X35.679 Y77.692 E15.06819
G1 X36.465 Y75.528 E15.14476
G1 X37.701 Y73.643 E15.21974
G1 X39.469 Y71.975 E15.30058
G1 X41.458 Y70.846 E15.37665
G0 F9000 X41.616 Y71.216
G1 F1800 X43.74 Y70.606 E15.45015
G1 X45.888 Y70.47 E15.52173
G1 X48.164 Y70.871 E15.5986
G1 X50.139 Y71.746 E15.67045
G1 X50.38 Y71.916 E15.68026
G1 X51.611 Y71.216 E15.72736
G1 X53.739 Y70.606 E15.80098
G1 X55.887 Y70.47 E15.87257
G1 X58.166 Y70.872 E15.94954
G1 X60.184 Y71.766 E16.02295
G1 X61.962 Y73.122 E16.09732
G1 X63.355 Y74.795 E16.16973
G1 X64.327 Y76.779 E16.24321
G1 X64.827 Y78.907 E16.31592
G1 X64.827 Y80.537 E16.37013
G1 X65.887 Y80.47 E16.40546
G1 X68.166 Y80.872 E16.48243
G1 X70.184 Y81.766 E16.55584
G1 X71.962 Y83.122 E16.63021
G1 X73.355 Y84.795 E16.70262
G1 X74.327 Y86.779 E16.7761
G1 X74.827 Y88.907 E16.84881
G1 X74.827 Y90.537 E16.90302
G1 X75.887 Y90.47 E16.93835
G1 X78.166 Y90.872 E17.01532
G1 X80.184 Y91.766 E17.08873
G1 X81.962 Y93.122 E17.1631
G1 X83.355 Y94.795 E17.23551
G1 X84.327 Y96.779 E17.30899
G1 X84.827 Y98.907 E17.38169
G1 X84.827 Y101.103 E17.45473
G1 X84.32 Y103.247 E17.52801
G1 X83.446 Y104.981 E17.59259
G1 X84.327 Y106.779 E17.65919
G1 X84.827 Y108.907 E17.73189
G1 X84.827 Y111.103 E17.80493
G1 X84.32 Y113.247 E17.87821
G1 X83.296 Y115.283 E17.95401
G1 X81.827 Y117.008 E18.02937
G1 X80.063 Y118.294 E18.10197
G1 X78.132 Y119.134 E18.17201
G1 X75.851 Y119.53 E18.24901
G1 X74.827 Y119.464 E18.28314
G1 X74.827 Y121.103 E18.33766
G1 X74.32 Y123.247 E18.41093
G1 X73.296 Y125.283 E18.48673
G1 X71.827 Y127.008 E18.56209
G1 X70.063 Y128.294 E18.6347
G1 X68.132 Y129.134 E18.70474
G1 X65.851 Y129.53 E18.78174
G1 X64.827 Y129.464 E18.81587
G1 X64.827 Y131.103 E18.87038
G1 X64.32 Y133.247 E18.94366
G1 X63.296 Y135.283 E19.01946
G1 X61.827 Y137.008 E19.09482
G1 X60.063 Y138.294 E19.16742
G1 X58.132 Y139.134 E19.23746
G1 X55.85 Y139.53 E19.3145
G1 X53.633 Y139.386 E19.38839
G1 X51.613 Y138.777 E19.45856
G1 X50.37 Y138.071 E19.50611
G1 X50.064 Y138.294 E19.5187
G1 X48.132 Y139.134 E19.58877
G1 X45.85 Y139.53 E19.6658
G1 X43.633 Y139.386 E19.7397
G1 X41.616 Y138.778 E19.80977
G1 X39.695 Y137.687 E19.88324
G1 X38.013 Y136.101 E19.96013
G1 X36.828 Y134.302 E20.03178
G1 X36.036 Y132.145 E20.10821
G1 X35.799 Y129.965 E20.18114
G1 X35.854 Y129.53 E20.19573
G1 X33.633 Y129.386 E20.26975
G1 X31.616 Y128.778 E20.33982
G1 X29.695 Y127.687 E20.4133
G1 X28.013 Y126.101 E20.49019
G1 X26.828 Y124.302 E20.56184
G1 X26.036 Y122.145 E20.63826
G1 X25.799 Y119.965 E20.7112
G1 X25.854 Y119.53 E20.72578
G1 X23.633 Y119.386 E20.79981
G1 X21.616 Y118.778 E20.86988
G1 X19.695 Y117.687 E20.94335
G1 X18.013 Y116.101 E21.02024
G1 X16.828 Y114.302 E21.09189
G1 X16.036 Y112.145 E21.16832
G1 X15.799 Y109.969 E21.24112
G1 X16.07 Y107.787 E21.31425
G1 X16.823 Y105.717 E21.38751
G1 X17.291 Y105.003 E21.41591
G1 X16.829 Y104.305 E21.44375
G1 X16.036 Y102.145 E21.52028
G1 X15.799 Y99.969 E21.59308
G1 X16.07 Y97.787 E21.66621
G1 X16.825 Y95.709 E21.73975
G1 X18.011 Y93.9 E21.81169
G1 X19.708 Y92.299 E21.88929
G1 X21.616 Y91.216 E21.96226
G1 X23.74 Y90.606 E22.03576
G1 X25.854 Y90.474 E22.10621
G1 X25.799 Y89.969 E22.12311
G1 X26.07 Y87.787 E22.19624
G1 X26.825 Y85.709 E22.26977
G1 X28.011 Y83.9 E22.34172
G1 X29.708 Y82.299 E22.41931
G1 X31.616 Y81.216 E22.49229
G1 X33.74 Y80.606 E22.56579
G1 X35.854 Y80.474 E22.63623
G1 X35.799 Y79.969 E22.65313
G1 X36.07 Y77.787 E22.72626
G1 X36.825 Y75.709 E22.7998
G1 X38.011 Y73.9 E22.87174
G1 X39.708 Y72.299 E22.94934
G1 X41.616 Y71.216 E23.02231
G0 F9000 X41.774 Y71.586
G1 F1800 X43.807 Y71.002 E23.09266
G1 X45.864 Y70.872 E23.16121
G1 X48.046 Y71.257 E23.23491
G1 X49.977 Y72.112 E23.30515
G1 X50.348 Y72.395 E23.32067
G1 X51.771 Y71.586 E23.37511
G1 X53.806 Y71.002 E23.44553
G1 X55.864 Y70.872 E23.51411
G1 X58.047 Y71.257 E23.58784
G1 X59.979 Y72.113 E23.65812
G1 X61.685 Y73.414 E23.72948
G1 X63.017 Y75.014 E23.79873
G1 X63.949 Y76.916 E23.86917
G1 X64.427 Y78.951 E23.9387
G1 X64.427 Y80.963 E24.00562
G1 X65.864 Y80.872 E24.05351
G1 X68.047 Y81.257 E24.12724
G1 X69.979 Y82.113 E24.19752
G1 X71.685 Y83.414 E24.26888
G1 X73.017 Y85.014 E24.33812
G1 X73.949 Y86.916 E24.40857
G1 X74.427 Y88.951 E24.4781
G1 X74.427 Y90.963 E24.54502
G1 X75.864 Y90.872 E24.59291
G1 X78.047 Y91.257 E24.66663
G1 X79.979 Y92.113 E24.73692
G1 X81.685 Y93.414 E24.80828
G1 X83.017 Y95.014 E24.87752
G1 X83.949 Y96.916 E24.94797
G1 X84.427 Y98.951 E25.01749
G1 X84.427 Y101.058 E25.08757
G1 X83.942 Y103.109 E25.15767
G1 X82.999 Y104.979 E25.22733
G1 X83.949 Y106.916 E25.29908
G1 X84.427 Y108.951 E25.36861
G1 X84.427 Y111.058 E25.43869
G1 X83.942 Y113.109 E25.50879
G1 X82.96 Y115.062 E25.58149
G1 X81.555 Y116.711 E25.65355
G1 X79.863 Y117.945 E25.7232
G1 X78.016 Y118.748 E25.79019
G1 X75.829 Y119.128 E25.86402
G1 X74.427 Y119.037 E25.91075
G1 X74.427 Y121.058 E25.97796
G1 X73.942 Y123.109 E26.04806
G1 X72.96 Y125.062 E26.12077
G1 X71.555 Y126.711 E26.19282
G1 X69.863 Y127.945 E26.26248
G1 X68.016 Y128.748 E26.32946
G1 X65.829 Y129.128 E26.40329
G1 X64.427 Y129.037 E26.45002
G1 X64.427 Y131.058 E26.51724
G1 X63.942 Y133.109 E26.58734
G1 X62.96 Y135.062 E26.66004
G1 X61.555 Y136.711 E26.7321
G1 X59.863 Y137.945 E26.80175
G1 X58.016 Y138.748 E26.86874
G1 X55.829 Y139.128 E26.94257
G1 X53.706 Y138.99 E27.01333
G1 X51.77 Y138.406 E27.08058
G1 X50.343 Y137.596 E27.13516
G1 X49.863 Y137.945 E27.1549
G1 X48.016 Y138.748 E27.22188
G1 X45.829 Y139.128 E27.29571
G1 X43.706 Y138.99 E27.36647
G1 X41.773 Y138.407 E27.43363
G1 X39.934 Y137.363 E27.50396
G1 X38.322 Y135.843 E27.57765
G1 X37.189 Y134.123 E27.64616
G1 X36.429 Y132.052 E27.71953
G1 X36.202 Y129.968 E27.78925
G1 X36.319 Y129.043 E27.82026
G1 X35.828 Y129.128 E27.83684
G1 X33.706 Y128.99 E27.90757
G1 X31.773 Y128.407 E27.97472
G1 X29.934 Y127.363 E28.04505
G1 X28.322 Y125.843 E28.11874
G1 X27.189 Y124.123 E28.18725
G1 X26.429 Y122.052 E28.26062
G1 X26.202 Y119.968 E28.33034
G1 X26.319 Y119.043 E28.36136
G1 X25.828 Y119.128 E28.37793
G1 X23.706 Y118.99 E28.44866
G1 X21.773 Y118.407 E28.51581
G1 X19.934 Y117.363 E28.58614
G1 X18.322 Y115.843 E28.65983
G1 X17.189 Y114.123 E28.72834
G1 X16.429 Y112.052 E28.80171
G1 X16.202 Y109.971 E28.87134
G1 X16.461 Y107.882 E28.94135
G1 X17.183 Y105.898 E29.01157
G1 X17.77 Y105.002 E29.0472
G1 X17.189 Y104.123 E29.08224
G1 X16.429 Y102.052 E29.15562
G1 X16.202 Y99.971 E29.22524
G1 X16.461 Y97.882 E29.29525
G1 X17.185 Y95.89 E29.36575
G1 X18.321 Y94.157 E29.43467
G1 X19.947 Y92.623 E29.50902
G1 X21.774 Y91.586 E29.57889
G1 X23.807 Y91.002 E29.64924
G1 X25.866 Y90.872 E29.71786
G1 X26.309 Y90.95 E29.73282
G1 X26.202 Y89.971 E29.76558
G1 X26.461 Y87.882 E29.83559
G1 X27.185 Y85.89 E29.90608
G1 X28.321 Y84.157 E29.975
G1 X29.947 Y82.623 E30.04935
G1 X31.774 Y81.586 E30.11923
G1 X33.807 Y81.002 E30.18958
G1 X35.866 Y80.872 E30.2582
G1 X36.309 Y80.95 E30.27316
G1 X36.202 Y79.971 E30.30591
G1 X36.461 Y77.882 E30.37593
G1 X37.185 Y75.89 E30.44642
G1 X38.321 Y74.157 E30.51534
G1 X39.947 Y72.623 E30.58969
G1 X41.774 Y71.586 E30.65956
G0 F9000 X41.932 Y71.956
G1 F1800 X43.874 Y71.398 E30.72677
G1 X45.841 Y71.274 E30.79232
G1 X47.928 Y71.642 E30.86281
G1 X49.774 Y72.46 E30.92996
G1 X50.316 Y72.873 E30.95263
G1 X51.931 Y71.956 E31.0144
G1 X53.873 Y71.398 E31.0816
G1 X55.841 Y71.274 E31.14719
G1 X57.928 Y71.642 E31.21767
G1 X59.774 Y72.46 E31.28483
G1 X61.408 Y73.706 E31.35317
G1 X62.679 Y75.233 E31.41925
G1 X63.571 Y77.053 E31.48666
G1 X64.027 Y78.995 E31.55301
G1 X64.027 Y81.013 E31.62013
G1 X63.937 Y81.394 E31.63315
G1 X65.841 Y81.274 E31.69661
G1 X67.928 Y81.642 E31.76709
G1 X69.774 Y82.46 E31.83425
G1 X71.408 Y83.706 E31.90259
G1 X72.679 Y85.233 E31.96867
G1 X73.571 Y87.053 E32.03608
G1 X74.027 Y88.995 E32.10243
G1 X74.027 Y91.013 E32.16955
G1 X73.937 Y91.394 E32.18257
G1 X75.841 Y91.274 E32.24602
G1 X77.928 Y91.642 E32.31651
G1 X79.774 Y92.46 E32.38367
G1 X81.408 Y93.706 E32.45201
G1 X82.679 Y95.233 E32.51809
G1 X83.571 Y97.053 E32.5855
G1 X84.027 Y98.995 E32.65185
G1 X84.027 Y101.013 E32.71897
G1 X83.564 Y102.971 E32.78589
G1 X82.647 Y104.794 E32.85376
G1 X82.484 Y105.002 E32.86255
G1 X82.682 Y105.241 E32.87287
G1 X83.571 Y107.053 E32.94
G1 X84.027 Y108.995 E33.00635
G1 X84.027 Y111.013 E33.07347
G1 X83.564 Y112.971 E33.14039
G1 X82.625 Y114.838 E33.2099
G1 X81.281 Y116.416 E33.27884
G1 X79.663 Y117.596 E33.34544
G1 X77.901 Y118.362 E33.40935
G1 X75.807 Y118.726 E33.48004
G1 X73.935 Y118.604 E33.54243
G1 X74.027 Y118.995 E33.55579
G1 X74.027 Y121.013 E33.62291
G1 X73.564 Y122.971 E33.68983
G1 X72.625 Y124.838 E33.75934
G1 X71.281 Y126.416 E33.82828
G1 X69.663 Y127.596 E33.89489
G1 X67.901 Y128.362 E33.95879
G1 X65.807 Y128.726 E34.02948
G1 X63.935 Y128.604 E34.09188
G1 X64.027 Y128.995 E34.10524
G1 X64.027 Y131.013 E34.17235
G1 X63.564 Y132.971 E34.23927
G1 X62.625 Y134.838 E34.30878
G1 X61.281 Y136.416 E34.37772
G1 X59.663 Y137.596 E34.44433
G1 X57.901 Y138.362 E34.50823
G1 X55.807 Y138.726 E34.57892
