;FLAVOR:Marlin
;TIME:6530
;Filament used: 2.94344m
;Layer height: 0.2
;MINX:14.047
;MINY:36.077
;MINZ:0.2
;MAXX:84.606
;MAXY:155.551
;MAXZ:6.2
;TARGET_MACHINE.NAME:Creality Ender-3 V3 SE
;Generated with Cura_SteamEngine 5.8.1
M82 ;absolute extrusion mode
M220 S100 ;Reset Feedrate
M221 S100 ;Reset Flowrate

G28 ;Home

M420 S1; Use saved mesh leveling data

G92 E0 ;Reset Extruder
G1 Z2.0 F3000 ;Move Z Axis up
G1 X-3 Y20 Z0.28 F5000.0 ;Move to start position
M190 S65 ; Set bed temperature and wait
M109 S205.0 ; Set hotend temperature and wait
G1 X-3 Y100.0 Z0.28 F1500.0 E15 ;Draw the first line
G1 X-2 Y100.0 Z0.28 F5000.0 ;Move to side a little
G1 X-2 Y20 Z0.28 F1500.0 E30 ;Draw the second line
G92 E0 ;Reset Extruder
G1 E-1.0000 F1800 ;Retract a bit
G1 Z2.0 F3000 ;Move Z Axis up
G1 E0.0000 F1800 

G92 E0
G92 E0
G1 F2400 E-0.8
;LAYER_COUNT:30
;LAYER:0
M107
G1 F300 Z0.4
G0 F9000 X20.553 Y37.278 Z0.4
;TYPE:SKIRT
G1 F300 Z0.2
G1 F2400 E0
G1 F1800 X21.744 Y36.648 E0.04481
G1 X24.042 Y36.077 E0.12357
G1 X24.731 Y36.147 E0.1466
G1 X25.416 Y36.084 E0.16948
G1 X27.415 Y36.106 E0.23597
G1 X27.638 Y36.088 E0.24342
G1 X30.294 Y36.139 E0.33177
G1 X31.921 Y36.372 E0.38644
G1 X34.281 Y37.641 E0.47556
G1 X34.541 Y37.901 E0.48779
G1 X34.95 Y37.63 E0.50411
G1 X35.568 Y37.271 E0.52788
G1 X36.744 Y36.648 E0.57214
G1 X39.042 Y36.077 E0.6509
G1 X39.731 Y36.147 E0.67393
G1 X40.416 Y36.084 E0.69681
G1 X42.415 Y36.106 E0.7633
G1 X42.638 Y36.088 E0.77074
G1 X45.294 Y36.139 E0.8591
G1 X46.921 Y36.372 E0.91376
G1 X49.281 Y37.641 E1.00289
G1 X49.541 Y37.901 E1.01512
G1 X49.95 Y37.63 E1.03143
G1 X50.568 Y37.271 E1.05521
G1 X51.744 Y36.648 E1.09947
G1 X54.042 Y36.077 E1.17823
G1 X54.731 Y36.147 E1.20126
G1 X55.416 Y36.084 E1.22414
G1 X57.415 Y36.106 E1.29063
G1 X57.638 Y36.088 E1.29807
G1 X60.294 Y36.139 E1.38643
G1 X61.921 Y36.372 E1.44109
G1 X64.281 Y37.641 E1.53021
G1 X64.541 Y37.901 E1.54244
G1 X64.95 Y37.63 E1.55876
G1 X65.568 Y37.271 E1.58253
G1 X66.744 Y36.648 E1.6268
G1 X69.042 Y36.077 E1.70555
G1 X69.731 Y36.147 E1.72859
G1 X70.416 Y36.084 E1.75147
G1 X72.415 Y36.106 E1.81796
G1 X72.638 Y36.088 E1.8254
G1 X75.294 Y36.139 E1.91375
G1 X76.921 Y36.372 E1.96842
G1 X79.281 Y37.641 E2.05754
G1 X82.738 Y41.098 E2.22015
G1 X84.026 Y43.486 E2.31039
G1 X84.26 Y45.398 E2.37446
G1 X84.292 Y48.253 E2.46942
G1 X83.843 Y50.085 E2.53216
G1 X82.761 Y52.181 E2.61061
G1 X82.272 Y52.632 E2.63274
G1 X82.738 Y53.098 E2.65466
G1 X84.026 Y55.486 E2.7449
G1 X84.26 Y57.398 E2.80897
G1 X84.292 Y60.253 E2.90393
G1 X83.843 Y62.085 E2.96667
G1 X82.761 Y64.181 E3.04512
G1 X82.272 Y64.632 E3.06725
G1 X82.738 Y65.098 E3.08917
G1 X84.026 Y67.486 E3.17941
G1 X84.26 Y69.398 E3.24347
G1 X84.292 Y72.253 E3.33844
G1 X83.844 Y74.083 E3.4011
G1 X82.762 Y76.179 E3.47956
G1 X81.735 Y77.129 E3.52609
G1 X82.846 Y78.24 E3.57834
G1 X84.134 Y80.628 E3.66859
G1 X84.368 Y82.54 E3.73265
G1 X84.4 Y85.395 E3.82762
G1 X83.952 Y87.225 E3.89028
G1 X82.872 Y89.317 E3.96859
G1 X82.378 Y89.772 E3.99092
G1 X82.846 Y90.24 E4.01294
G1 X84.134 Y92.628 E4.10318
G1 X84.368 Y94.54 E4.16725
G1 X84.4 Y97.395 E4.26221
G1 X83.952 Y99.225 E4.32487
G1 X82.872 Y101.317 E4.40318
G1 X82.378 Y101.772 E4.42552
G1 X82.846 Y102.24 E4.44753
G1 X84.134 Y104.628 E4.53777
G1 X84.368 Y106.54 E4.60184
G1 X84.4 Y109.395 E4.6968
G1 X83.952 Y111.225 E4.75947
G1 X82.872 Y113.317 E4.83777
G1 X82.449 Y113.707 E4.85691
G1 X83.052 Y114.31 E4.88527
G1 X84.34 Y116.698 E4.97551
G1 X84.574 Y118.61 E5.03958
G1 X84.606 Y121.465 E5.13455
G1 X84.158 Y123.295 E5.19721
G1 X83.078 Y125.387 E5.27551
G1 X82.584 Y125.842 E5.29785
G1 X83.052 Y126.31 E5.31987
G1 X84.34 Y128.698 E5.41011
G1 X84.574 Y130.61 E5.47417
G1 X84.606 Y133.465 E5.56914
G1 X84.158 Y135.295 E5.6318
G1 X83.078 Y137.387 E5.71011
G1 X82.584 Y137.842 E5.73244
G1 X83.052 Y138.31 E5.75446
G1 X84.34 Y140.698 E5.8447
G1 X84.574 Y142.61 E5.90877
G1 X84.606 Y145.465 E6.00373
G1 X84.158 Y147.295 E6.06639
G1 X83.078 Y149.387 E6.1447
G1 X81.527 Y150.82 E6.21493
G1 X79.554 Y151.998 E6.29136
G1 X79.228 Y152.078 E6.30253
G1 X78.677 Y152.729 E6.33089
G1 X77.282 Y154.028 E6.39429
G1 X74.627 Y155.281 E6.49194
G1 X72.742 Y155.509 E6.55509
G1 X70.007 Y155.551 E6.64607
G1 X68.712 Y155.303 E6.68992
G1 X66.325 Y154.348 E6.77543
G1 X65.234 Y153.454 E6.82235
G1 X63.735 Y152.682 E6.87843
G1 X62.281 Y154.029 E6.94435
G1 X59.628 Y155.281 E7.04192
G1 X58.018 Y155.491 E7.09592
G1 X54.904 Y155.51 E7.1995
G1 X53.897 Y155.382 E7.23326
G1 X51.315 Y154.345 E7.32581
G1 X50.227 Y153.452 E7.37262
G1 X48.735 Y152.682 E7.42846
G1 X47.281 Y154.029 E7.49439
G1 X44.628 Y155.281 E7.59196
G1 X43.018 Y155.491 E7.64596
G1 X39.904 Y155.51 E7.74954
G1 X38.897 Y155.382 E7.7833
G1 X36.315 Y154.345 E7.87584
G1 X35.227 Y153.452 E7.92266
G1 X33.735 Y152.682 E7.9785
G1 X32.281 Y154.03 E8.04445
G1 X29.626 Y155.281 E8.14206
G1 X27.788 Y155.506 E8.20365
G1 X25.009 Y155.551 E8.29609
G1 X23.711 Y155.303 E8.34005
G1 X21.325 Y154.348 E8.42553
G1 X20.234 Y153.454 E8.47244
G1 X18.626 Y152.633 E8.53249
G1 X17.178 Y151.066 E8.60345
G1 X16.525 Y149.948 E8.64652
G1 X15.934 Y149.313 E8.67537
G1 X14.864 Y147.512 E8.74504
G1 X14.629 Y146.655 E8.7746
G1 X14.407 Y145.079 E8.82754
G1 X14.361 Y141.935 E8.93212
G1 X15.139 Y139.676 E9.01158
G1 X15.847 Y138.471 E9.05807
G1 X16.437 Y137.852 E9.08651
G1 X15.933 Y137.311 E9.1111
G1 X14.864 Y135.512 E9.1807
G1 X14.629 Y134.655 E9.21026
G1 X14.407 Y133.079 E9.26319
G1 X14.361 Y129.935 E9.36778
G1 X15.139 Y127.676 E9.44724
G1 X15.847 Y126.471 E9.49373
G1 X16.437 Y125.852 E9.52217
G1 X15.933 Y125.311 E9.54676
G1 X14.864 Y123.512 E9.61636
G1 X14.629 Y122.655 E9.64592
G1 X14.407 Y121.079 E9.69885
G1 X14.361 Y117.935 E9.80343
G1 X15.139 Y115.676 E9.8829
G1 X15.85 Y114.471 E9.92944
G1 X16.367 Y113.928 E9.95437
G1 X15.726 Y113.237 E9.98572
G1 X14.658 Y111.442 E10.05519
G1 X14.423 Y110.585 E10.08475
G1 X14.201 Y109.009 E10.13768
G1 X14.155 Y105.865 E10.24226
G1 X14.933 Y103.606 E10.32173
G1 X15.641 Y102.401 E10.36821
G1 X16.231 Y101.782 E10.39666
G1 X15.727 Y101.241 E10.42125
G1 X14.658 Y99.442 E10.49085
G1 X14.423 Y98.585 E10.52041
G1 X14.201 Y97.009 E10.57334
G1 X14.155 Y93.865 E10.67792
G1 X14.933 Y91.606 E10.75739
G1 X15.641 Y90.401 E10.80387
G1 X16.231 Y89.782 E10.83231
G1 X15.727 Y89.241 E10.85691
G1 X14.658 Y87.442 E10.92651
G1 X14.423 Y86.585 E10.95606
G1 X14.201 Y85.009 E11.009
G1 X14.155 Y81.865 E11.11358
G1 X14.933 Y79.606 E11.19305
G1 X15.64 Y78.407 E11.23934
G1 X16.6 Y77.401 E11.28559
G1 X16.211 Y76.736 E11.31122
G1 X15.62 Y76.101 E11.34007
G1 X14.55 Y74.3 E11.40974
G1 X14.315 Y73.443 E11.4393
G1 X14.093 Y71.867 E11.49224
G1 X14.047 Y68.708 E11.59732
G1 X14.823 Y66.502 E11.6751
G1 X15.305 Y65.54 E11.71088
G1 X16.129 Y64.648 E11.75127
G1 X15.62 Y64.101 E11.77612
G1 X14.55 Y62.3 E11.8458
G1 X14.315 Y61.443 E11.87536
G1 X14.093 Y59.867 E11.92829
G1 X14.047 Y56.708 E12.03337
G1 X14.823 Y54.502 E12.11115
G1 X15.305 Y53.54 E12.14694
G1 X16.131 Y52.646 E12.18742
G1 X15.616 Y52.091 E12.2126
G1 X14.547 Y50.296 E12.28209
G1 X14.315 Y49.442 E12.31152
G1 X14.109 Y48.066 E12.3578
G1 X14.112 Y45.131 E12.45542
G1 X14.328 Y43.643 E12.50543
G1 X14.89 Y42.418 E12.55026
G1 X15.976 Y40.614 E12.62029
G1 X17.787 Y39.138 E12.698
G1 X18.694 Y38.457 E12.73572
G1 X19.91 Y37.653 E12.78421
G1 X20.553 Y37.278 E12.80896
G0 F9000 X20.755 Y37.624
G1 F1800 X21.886 Y37.025 E12.85153
G1 X24.07 Y36.482 E12.92638
G1 X24.728 Y36.549 E12.94838
G1 X25.412 Y36.484 E12.97123
G1 X27.426 Y36.506 E13.03822
G1 X27.63 Y36.488 E13.04503
G1 X30.286 Y36.539 E13.13339
G1 X31.796 Y36.758 E13.18414
G1 X34.038 Y37.964 E13.26881
G1 X34.489 Y38.415 E13.29002
G1 X35.151 Y37.976 E13.31644
G1 X35.755 Y37.624 E13.3397
G1 X36.886 Y37.025 E13.38226
G1 X39.07 Y36.482 E13.45711
G1 X39.728 Y36.549 E13.47911
G1 X40.412 Y36.484 E13.50196
G1 X42.426 Y36.506 E13.56895
G1 X42.63 Y36.488 E13.57577
G1 X45.286 Y36.539 E13.66412
G1 X46.796 Y36.758 E13.71487
G1 X49.038 Y37.964 E13.79954
G1 X49.489 Y38.415 E13.82076
G1 X50.151 Y37.976 E13.84718
G1 X50.755 Y37.624 E13.87043
G1 X51.886 Y37.025 E13.91299
G1 X54.07 Y36.482 E13.98785
G1 X54.728 Y36.549 E14.00984
G1 X55.412 Y36.484 E14.0327
G1 X57.426 Y36.506 E14.09969
G1 X57.63 Y36.488 E14.1065
G1 X60.286 Y36.539 E14.19485
G1 X61.796 Y36.758 E14.2456
G1 X64.038 Y37.964 E14.33028
G1 X64.489 Y38.415 E14.35149
G1 X65.151 Y37.976 E14.37791
G1 X65.755 Y37.624 E14.40116
G1 X66.886 Y37.025 E14.44373
G1 X69.07 Y36.482 E14.51858
G1 X69.728 Y36.549 E14.54058
G1 X70.412 Y36.484 E14.56343
G1 X72.426 Y36.506 E14.63042
G1 X72.63 Y36.488 E14.63723
G1 X75.286 Y36.539 E14.72559
G1 X76.796 Y36.758 E14.77633
G1 X79.038 Y37.964 E14.86101
G1 X82.414 Y41.34 E15.0198
G1 X83.638 Y43.609 E15.10555
G1 X83.86 Y45.402 E15.16564
G1 X83.891 Y48.205 E15.25888
G1 X83.465 Y49.946 E15.31849
G1 X82.439 Y51.933 E15.39287
G1 X81.695 Y52.621 E15.42657
G1 X82.414 Y53.34 E15.46039
G1 X83.638 Y55.609 E15.54614
G1 X83.86 Y57.402 E15.60623
G1 X83.891 Y60.205 E15.69946
G1 X83.465 Y61.946 E15.75908
G1 X82.439 Y63.933 E15.83346
G1 X81.695 Y64.621 E15.86716
G1 X82.414 Y65.34 E15.90098
G1 X83.638 Y67.609 E15.98673
G1 X83.86 Y69.402 E16.04682
G1 X83.891 Y72.205 E16.14005
G1 X83.466 Y73.944 E16.19959
G1 X82.44 Y75.931 E16.27397
G1 X81.157 Y77.117 E16.33208
G1 X82.522 Y78.482 E16.39629
G1 X83.746 Y80.751 E16.48204
G1 X83.968 Y82.544 E16.54213
G1 X83.999 Y85.347 E16.63536
G1 X83.574 Y87.086 E16.6949
G1 X82.549 Y89.071 E16.76921
G1 X81.801 Y89.761 E16.80305
G1 X82.522 Y90.482 E16.83697
G1 X83.746 Y92.751 E16.92272
G1 X83.968 Y94.544 E16.98281
G1 X83.999 Y97.347 E17.07604
G1 X83.574 Y99.086 E17.13558
G1 X82.549 Y101.071 E17.20989
G1 X81.801 Y101.761 E17.24373
G1 X82.522 Y102.482 E17.27765
G1 X83.746 Y104.751 E17.36339
G1 X83.968 Y106.544 E17.42349
G1 X83.999 Y109.347 E17.51672
G1 X83.574 Y111.086 E17.57626
G1 X82.549 Y113.071 E17.65056
G1 X81.872 Y113.696 E17.68121
G1 X82.728 Y114.552 E17.72147
G1 X83.952 Y116.821 E17.80722
G1 X84.174 Y118.614 E17.86731
G1 X84.205 Y121.417 E17.96055
G1 X83.78 Y123.156 E18.02009
G1 X82.755 Y125.141 E18.09439
G1 X82.007 Y125.831 E18.12824
G1 X82.728 Y126.552 E18.16215
G1 X83.952 Y128.821 E18.2479
G1 X84.174 Y130.614 E18.30799
G1 X84.205 Y133.417 E18.40122
G1 X83.78 Y135.156 E18.46077
G1 X82.755 Y137.141 E18.53507
G1 X82.007 Y137.831 E18.56892
G1 X82.728 Y138.552 E18.60283
G1 X83.952 Y140.821 E18.68858
G1 X84.174 Y142.614 E18.74867
G1 X84.205 Y145.417 E18.8419
G1 X83.78 Y147.156 E18.90144
G1 X82.755 Y149.141 E18.97575
G1 X81.285 Y150.499 E19.04231
G1 X79.349 Y151.655 E19.11731
G1 X79.019 Y151.706 E19.12841
G1 X78.372 Y152.47 E19.16171
G1 X77.056 Y153.692 E19.22144
G1 X74.513 Y154.892 E19.31497
G1 X72.736 Y155.109 E19.37451
G1 X70.042 Y155.15 E19.46412
G1 X68.823 Y154.917 E19.5054
G1 X66.529 Y153.999 E19.58758
G1 X65.452 Y153.117 E19.63388
G1 X63.935 Y152.341 E19.69056
G1 X63.683 Y152.103 E19.70209
G1 X63.339 Y152.504 E19.71966
G1 X62.056 Y153.693 E19.77784
G1 X59.514 Y154.892 E19.87132
G1 X57.966 Y155.094 E19.92324
G1 X54.955 Y155.113 E20.02339
G1 X53.997 Y154.991 E20.05551
G1 X51.522 Y153.997 E20.14422
G1 X50.448 Y153.116 E20.19042
G1 X48.935 Y152.341 E20.24696
G1 X48.683 Y152.103 E20.25849
G1 X48.339 Y152.504 E20.27606
G1 X47.056 Y153.693 E20.33424
G1 X44.514 Y154.892 E20.42772
G1 X42.966 Y155.094 E20.47965
G1 X39.955 Y155.113 E20.57979
G1 X38.997 Y154.991 E20.61191
G1 X36.522 Y153.997 E20.70062
G1 X35.448 Y153.116 E20.74683
G1 X33.935 Y152.341 E20.80337
G1 X33.683 Y152.103 E20.8149
G1 X33.339 Y152.504 E20.83247
G1 X32.056 Y153.693 E20.89065
G1 X29.513 Y154.892 E20.98416
G1 X27.782 Y155.106 E21.04217
G1 X25.044 Y155.15 E21.13325
G1 X23.822 Y154.917 E21.17462
G1 X21.529 Y153.999 E21.25677
G1 X20.452 Y153.117 E21.30307
G1 X18.871 Y152.309 E21.36213
G1 X17.501 Y150.826 E21.42928
G1 X16.846 Y149.705 E21.47246
G1 X16.255 Y149.07 E21.50131
G1 X15.235 Y147.353 E21.56774
G1 X15.025 Y146.598 E21.5938
G1 X14.807 Y145.073 E21.64504
G1 X14.762 Y141.998 E21.74733
G1 X15.503 Y139.847 E21.82299
G1 X16.169 Y138.714 E21.86671
G1 X16.953 Y137.891 E21.90451
G1 X16.843 Y137.702 E21.91179
G1 X16.255 Y137.07 E21.9405
G1 X15.235 Y135.353 E22.00692
G1 X15.025 Y134.598 E22.03299
G1 X14.807 Y133.073 E22.08422
G1 X14.762 Y129.998 E22.18651
G1 X15.503 Y127.847 E22.26218
G1 X16.169 Y126.714 E22.30589
G1 X16.953 Y125.891 E22.34369
G1 X16.843 Y125.702 E22.35097
G1 X16.255 Y125.07 E22.37968
G1 X15.235 Y123.353 E22.4461
G1 X15.025 Y122.598 E22.47217
G1 X14.807 Y121.073 E22.52341
G1 X14.762 Y117.998 E22.62569
G1 X15.503 Y115.847 E22.70136
G1 X16.171 Y114.714 E22.74511
G1 X16.852 Y113.999 E22.77795
G1 X16.637 Y113.631 E22.79212
G1 X16.048 Y112.997 E22.82091
G1 X15.029 Y111.283 E22.88723
G1 X14.819 Y110.528 E22.91329
G1 X14.601 Y109.003 E22.96453
G1 X14.556 Y105.928 E23.06682
G1 X15.297 Y103.777 E23.14248
G1 X15.963 Y102.644 E23.1862
G1 X16.747 Y101.821 E23.224
G1 X16.637 Y101.632 E23.23127
G1 X16.049 Y101 E23.25999
G1 X15.029 Y99.283 E23.32641
G1 X14.819 Y98.528 E23.35248
G1 X14.601 Y97.003 E23.40371
G1 X14.556 Y93.928 E23.506
G1 X15.297 Y91.777 E23.58167
G1 X15.963 Y90.644 E23.62538
G1 X16.747 Y89.821 E23.66318
G1 X16.637 Y89.632 E23.67046
G1 X16.049 Y89 E23.69917
G1 X15.029 Y87.283 E23.76559
G1 X14.819 Y86.528 E23.79166
G1 X14.601 Y85.003 E23.8429
G1 X14.556 Y81.928 E23.94518
G1 X15.297 Y79.777 E24.02085
G1 X15.963 Y78.647 E24.06448
G1 X17.097 Y77.459 E24.1191
G1 X16.532 Y76.493 E24.15632
G1 X15.941 Y75.858 E24.18517
G1 X14.921 Y74.141 E24.2516
G1 X14.711 Y73.386 E24.27766
G1 X14.493 Y71.861 E24.3289
G1 X14.448 Y68.772 E24.43165
G1 X15.181 Y66.681 E24.50535
G1 X15.638 Y65.769 E24.53928
G1 X16.642 Y64.681 E24.58852
G1 X16.532 Y64.493 E24.59576
G1 X15.941 Y63.858 E24.62461
G1 X14.921 Y62.141 E24.69104
G1 X14.711 Y61.386 E24.7171
G1 X14.493 Y59.861 E24.76834
G1 X14.448 Y56.772 E24.87109
G1 X15.181 Y54.681 E24.94479
G1 X15.638 Y53.769 E24.97872
G1 X16.642 Y52.681 E25.02796
G1 X16.528 Y52.486 E25.03547
G1 X15.94 Y51.852 E25.06423
G1 X14.919 Y50.138 E25.13059
G1 X14.711 Y49.383 E25.15663
G1 X14.505 Y48.007 E25.20291
G1 X14.508 Y45.189 E25.29664
G1 X14.716 Y43.758 E25.34473
G1 X15.254 Y42.585 E25.38765
G1 X16.282 Y40.881 E25.45384
G1 X18.027 Y39.458 E25.52873
G1 X18.915 Y38.791 E25.56567
G1 X20.112 Y37.999 E25.61341
G1 X20.755 Y37.624 E25.63817
G0 F9000 X20.942 Y37.978
G1 F1800 X22.032 Y37.401 E25.67919
G1 X24.098 Y36.887 E25.75
G1 X24.726 Y36.951 E25.77099
G1 X25.408 Y36.884 E25.79379
G1 X27.446 Y36.906 E25.86157
G1 X27.665 Y36.887 E25.86889
G1 X30.229 Y36.935 E25.95418
G1 X31.67 Y37.144 E26.00261
G1 X33.795 Y38.287 E26.08286
G1 X34.437 Y38.929 E26.11306
G1 X35.352 Y38.322 E26.14958
G1 X35.942 Y37.978 E26.1723
G1 X37.032 Y37.401 E26.21332
G1 X39.098 Y36.887 E26.28413
G1 X39.726 Y36.951 E26.30512
G1 X40.408 Y36.884 E26.32791
G1 X42.446 Y36.906 E26.3957
G1 X42.665 Y36.887 E26.40301
G1 X45.229 Y36.935 E26.48831
G1 X46.67 Y37.144 E26.53674
G1 X48.795 Y38.287 E26.61699
G1 X49.437 Y38.929 E26.64719
G1 X50.352 Y38.322 E26.68371
G1 X50.942 Y37.978 E26.70642
G1 X52.032 Y37.401 E26.74744
G1 X54.098 Y36.887 E26.81825
G1 X54.726 Y36.951 E26.83925
G1 X55.408 Y36.884 E26.86204
G1 X57.446 Y36.906 E26.92983
G1 X57.665 Y36.887 E26.93714
G1 X60.229 Y36.935 E27.02243
G1 X61.67 Y37.144 E27.07086
G1 X63.795 Y38.287 E27.15112
G1 X64.437 Y38.929 E27.18132
G1 X65.352 Y38.322 E27.21784
G1 X65.942 Y37.978 E27.24055
G1 X67.032 Y37.401 E27.28157
G1 X69.098 Y36.887 E27.35238
G1 X69.726 Y36.951 E27.37338
G1 X70.408 Y36.884 E27.39617
G1 X72.446 Y36.906 E27.46396
G1 X72.665 Y36.887 E27.47127
G1 X75.229 Y36.935 E27.55656
G1 X76.67 Y37.144 E27.60499
G1 X78.795 Y38.287 E27.68525
G1 X82.09 Y41.582 E27.84023
G1 X83.25 Y43.732 E27.92149
G1 X83.46 Y45.406 E27.9776
G1 X83.49 Y48.157 E28.0691
G1 X83.087 Y49.807 E28.1256
G1 X82.117 Y51.685 E28.1959
G1 X81.118 Y52.61 E28.24118
G1 X82.09 Y53.582 E28.2869
G1 X83.25 Y55.732 E28.36815
G1 X83.46 Y57.406 E28.42427
G1 X83.49 Y60.157 E28.51577
G1 X83.087 Y61.807 E28.57226
G1 X82.117 Y63.685 E28.64257
G1 X81.118 Y64.61 E28.68785
G1 X82.09 Y65.582 E28.73357
G1 X83.25 Y67.732 E28.81482
G1 X83.46 Y69.406 E28.87094
G1 X83.49 Y72.157 E28.96244
G1 X83.087 Y73.807 E29.01893
