;FLAVOR:Marlin
;TIME:5019
;Filament used: 5.83521m
;Layer height: 0.2
;MINX:14.412
;MINY:29.668
;MINZ:0.2
;MAXX:129.92
;MAXY:145.214
;MAXZ:2.2
;TARGET_MACHINE.NAME:Creality Ender-3 V3 SE
;Generated with Cura_SteamEngine 5.8.1
M82 ;absolute extrusion mode
M220 S100 ;Reset Feedrate
M221 S100 ;Reset Flowrate

G28 ;Home

M420 S1; Use saved mesh leveling data

G92 E0 ;Reset Extruder
G1 Z2.0 F3000 ;Move Z Axis up
G1 X-3 Y20 Z0.28 F5000.0 ;Move to start position
M190 S65 ; Set bed temperature and wait
M109 S205.0 ; Set hotend temperature and wait
G1 X-3 Y100.0 Z0.28 F1500.0 E15 ;Draw the first line
G1 X-2 Y100.0 Z0.28 F5000.0 ;Move to side a little
G1 X-2 Y20 Z0.28 F1500.0 E30 ;Draw the second line
G92 E0 ;Reset Extruder
G1 E-1.0000 F1800 ;Retract a bit
G1 Z2.0 F3000 ;Move Z Axis up
G1 E0.0000 F1800 

G92 E0
G92 E0
G1 F2400 E-0.8
;LAYER_COUNT:10
;LAYER:0
M107
G1 F300 Z0.4
G0 F9000 X19.411 Y31.22 Z0.4
;TYPE:SKIRT
G1 F300 Z0.2
G1 F2400 E0
G1 F1800 X21.796 Y29.932 E0.09015
G1 X23.523 Y29.71 E0.14807
G1 X120.171 Y29.668 E3.36259
G1 X122.32 Y29.899 E3.43448
G1 X122.721 Y30.015 E3.44836
G1 X124.947 Y31.208 E3.53236
G1 X128.403 Y34.666 E3.69497
G1 X129.691 Y37.051 E3.78512
G1 X129.913 Y38.778 E3.84304
G1 X129.92 Y136.104 E7.08011
G1 X129.698 Y137.831 E7.13803
G1 X128.41 Y140.216 E7.22818
G1 X124.95 Y143.674 E7.39088
G1 X122.759 Y144.848 E7.47356
G1 X122.364 Y144.979 E7.4874
G1 X120.174 Y145.214 E7.56066
G1 X23.343 Y145.157 E10.78127
G1 X21.764 Y144.928 E10.83434
G1 X19.405 Y143.659 E10.92343
G1 X15.952 Y140.207 E11.08582
G1 X14.778 Y138.016 E11.1685
G1 X14.647 Y137.621 E11.18234
G1 X14.412 Y135.431 E11.2556
G1 X14.471 Y38.599 E14.47624
G1 X14.7 Y37.02 E14.52931
G1 X15.969 Y34.661 E14.6184
G1 X19.411 Y31.22 E14.78028
G0 F9000 X19.653 Y31.544
G1 F1800 X21.92 Y30.32 E14.86597
G1 X23.574 Y30.107 E14.92144
G1 X120.171 Y30.068 E18.13427
G1 X122.277 Y30.297 E18.20472
G1 X122.567 Y30.387 E18.21482
G1 X124.706 Y31.533 E18.29553
G1 X128.079 Y34.908 E18.45424
G1 X129.303 Y37.175 E18.53993
G1 X129.516 Y38.829 E18.59539
G1 X129.523 Y136.053 E21.82908
G1 X129.31 Y137.707 E21.88454
G1 X128.086 Y139.974 E21.97023
G1 X124.709 Y143.349 E22.12903
G1 X122.57 Y144.495 E22.20974
G1 X122.28 Y144.585 E22.21984
G1 X120.174 Y144.814 E22.2903
G1 X23.4 Y144.761 E25.50901
G1 X21.89 Y144.542 E25.55976
G1 X19.648 Y143.336 E25.64444
G1 X16.277 Y139.966 E25.80297
G1 X15.131 Y137.827 E25.88368
G1 X15.041 Y137.537 E25.89378
G1 X14.812 Y135.431 E25.96424
G1 X14.867 Y38.656 E29.18299
G1 X15.086 Y37.146 E29.23374
G1 X16.292 Y34.904 E29.31841
G1 X19.653 Y31.544 E29.47648
G0 F9000 X19.895 Y31.868
G1 F1800 X22.044 Y30.708 E29.55771
G1 X23.625 Y30.504 E29.61073
G1 X120.171 Y30.468 E32.82186
G1 X122.233 Y30.695 E32.89086
G1 X122.378 Y30.74 E32.8959
G1 X124.465 Y31.858 E32.97465
G1 X127.755 Y35.15 E33.12945
G1 X128.915 Y37.299 E33.21067
G1 X129.119 Y38.88 E33.26369
G1 X129.126 Y136.002 E36.49399
G1 X128.922 Y137.583 E36.54701
G1 X127.762 Y139.732 E36.62823
G1 X124.468 Y143.024 E36.78312
G1 X122.381 Y144.142 E36.86187
G1 X122.236 Y144.187 E36.86692
G1 X120.174 Y144.414 E36.93591
G1 X23.457 Y144.365 E40.15274
G1 X22.016 Y144.156 E40.20117
G1 X19.891 Y143.013 E40.28142
G1 X16.602 Y139.725 E40.4361
G1 X15.484 Y137.638 E40.51485
G1 X15.439 Y137.493 E40.5199
G1 X15.212 Y135.431 E40.58889
G1 X15.263 Y38.713 E43.80575
G1 X15.472 Y37.272 E43.85418
G1 X16.615 Y35.147 E43.93443
G1 X19.895 Y31.868 E44.08869
G0 F9000 X20.137 Y32.192
G1 F1800 X22.168 Y31.096 E44.16545
G1 X23.676 Y30.901 E44.21602
G1 X120.171 Y30.868 E47.42546
G1 X122.189 Y31.093 E47.49299
G1 X124.224 Y32.183 E47.56977
G1 X127.431 Y35.392 E47.72067
G1 X128.527 Y37.423 E47.79743
G1 X128.722 Y38.931 E47.848
G1 X128.729 Y135.951 E51.0749
G1 X128.534 Y137.459 E51.12547
G1 X127.438 Y139.49 E51.20223
G1 X124.227 Y142.699 E51.35322
G1 X122.192 Y143.789 E51.43
G1 X120.174 Y144.014 E51.49754
G1 X23.514 Y143.969 E54.71246
G1 X22.142 Y143.77 E54.75857
G1 X20.134 Y142.69 E54.83441
G1 X16.927 Y139.484 E54.98523
G1 X15.837 Y137.449 E55.06201
G1 X15.612 Y135.431 E55.12955
G1 X15.659 Y38.77 E58.34451
G1 X15.858 Y37.398 E58.39062
G1 X16.938 Y35.39 E58.46645
G1 X20.137 Y32.192 E58.6169
G0 F9000 X20.379 Y32.516
G1 F1800 X22.292 Y31.484 E58.68919
G1 X23.727 Y31.298 E58.73732
G1 X120.171 Y31.268 E61.94506
G1 X122.066 Y31.481 E62.00849
G1 X123.983 Y32.508 E62.08082
G1 X127.107 Y35.634 E62.22781
G1 X128.139 Y37.547 E62.3001
G1 X128.325 Y38.982 E62.34823
G1 X128.332 Y135.9 E65.57174
G1 X128.146 Y137.335 E65.61987
G1 X127.114 Y139.248 E65.69216
G1 X123.986 Y142.374 E65.83924
G1 X122.069 Y143.401 E65.91158
G1 X120.174 Y143.614 E65.975
G1 X23.571 Y143.573 E69.18803
G1 X22.268 Y143.384 E69.23182
G1 X20.377 Y142.367 E69.30324
G1 X17.252 Y139.243 E69.4502
G1 X16.225 Y137.326 E69.52254
G1 X16.012 Y135.431 E69.58596
G1 X16.055 Y38.827 E72.79902
G1 X16.244 Y37.524 E72.84282
G1 X17.261 Y35.633 E72.91423
G1 X20.379 Y32.516 E73.06087
G0 F9000 X20.621 Y32.84
G1 F1800 X22.416 Y31.872 E73.1287
G1 X23.779 Y31.695 E73.17441
G1 X120.171 Y31.668 E76.38042
G1 X121.943 Y31.869 E76.43974
G1 X123.742 Y32.833 E76.50762
G1 X126.783 Y35.876 E76.65071
G1 X127.751 Y37.671 E76.71854
G1 X127.928 Y39.034 E76.76425
G1 X127.935 Y135.848 E79.9843
G1 X127.758 Y137.211 E80.03001
G1 X126.79 Y139.006 E80.09784
G1 X123.745 Y142.049 E80.24102
G1 X121.946 Y143.013 E80.30891
G1 X120.174 Y143.214 E80.36822
G1 X23.628 Y143.177 E83.57936
G1 X22.394 Y142.998 E83.62083
G1 X20.62 Y142.044 E83.68782
G1 X17.577 Y139.002 E83.83093
G1 X16.613 Y137.203 E83.89882
G1 X16.412 Y135.431 E83.95813
G1 X16.451 Y38.884 E87.1693
G1 X16.63 Y37.65 E87.21077
G1 X17.584 Y35.876 E87.27776
G1 X20.621 Y32.84 E87.42059
G0 F9000 X20.863 Y33.164
G1 F1800 X22.54 Y32.26 E87.48396
G1 X23.831 Y32.092 E87.52726
G1 X120.171 Y32.068 E90.73154
G1 X121.82 Y32.257 E90.78674
G1 X123.501 Y33.158 E90.85018
G1 X126.459 Y36.118 E90.98936
G1 X127.363 Y37.795 E91.05273
G1 X127.531 Y39.086 E91.09603
G1 X127.538 Y135.796 E94.31262
G1 X127.37 Y137.087 E94.35592
G1 X126.466 Y138.764 E94.41928
G1 X123.504 Y141.724 E94.55856
G1 X121.823 Y142.625 E94.62199
G1 X120.174 Y142.814 E94.6772
G1 X23.685 Y142.781 E97.88643
G1 X22.52 Y142.612 E97.92559
G1 X20.863 Y141.721 E97.98816
G1 X17.902 Y138.761 E98.12742
G1 X17.001 Y137.08 E98.19085
G1 X16.812 Y135.431 E98.24606
G1 X16.847 Y38.941 E101.45533
G1 X17.016 Y37.776 E101.49448
G1 X17.907 Y36.119 E101.55705
G1 X20.863 Y33.164 E101.69607
G0 F9000 X21.105 Y33.488
G1 F1800 X22.664 Y32.648 E101.75497
G1 X23.883 Y32.489 E101.79586
G1 X120.171 Y32.468 E104.99841
G1 X121.697 Y32.645 E105.04951
G1 X123.26 Y33.483 E105.10849
G1 X126.135 Y36.36 E105.24377
G1 X126.975 Y37.919 E105.30267
G1 X127.134 Y39.138 E105.34356
G1 X127.141 Y135.744 E108.55669
G1 X126.982 Y136.963 E108.59758
G1 X126.142 Y138.522 E108.65648
G1 X123.263 Y141.399 E108.79185
G1 X121.7 Y142.237 E108.85083
G1 X120.174 Y142.414 E108.90193
G1 X23.742 Y142.385 E112.10927
G1 X22.646 Y142.226 E112.14611
G1 X21.106 Y141.398 E112.20426
G1 X18.227 Y138.52 E112.33966
G1 X17.389 Y136.957 E112.39864
G1 X17.212 Y135.431 E112.44974
G1 X17.243 Y38.998 E115.65711
G1 X17.402 Y37.902 E115.69395
G1 X18.23 Y36.362 E115.7521
G1 X21.105 Y33.488 E115.88731
G0 F9000 X21.347 Y33.812
G1 F1800 X22.788 Y33.036 E115.94174
G1 X23.935 Y32.886 E115.98022
G1 X120.171 Y32.868 E119.18104
G1 X121.576 Y33.033 E119.22809
G1 X123.017 Y33.806 E119.28248
G1 X125.811 Y36.602 E119.41395
G1 X126.587 Y38.043 E119.46839
G1 X126.737 Y39.19 E119.50686
G1 X126.744 Y135.692 E122.71653
G1 X126.594 Y136.839 E122.755
G1 X125.818 Y138.28 E122.80944
G1 X123.02 Y141.076 E122.941
G1 X121.579 Y141.849 E122.99539
G1 X120.174 Y142.014 E123.04244
G1 X23.799 Y141.989 E126.24789
G1 X22.772 Y141.84 E126.2824
G1 X21.349 Y141.075 E126.33614
G1 X18.55 Y138.277 E126.46777
G1 X17.777 Y136.836 E126.52216
G1 X17.612 Y135.431 E126.56921
G1 X17.639 Y39.055 E129.77469
G1 X17.788 Y38.028 E129.8092
G1 X18.553 Y36.605 E129.86294
G1 X21.347 Y33.812 E129.99434
G0 F9000 X21.589 Y34.136
G1 F1800 X22.912 Y33.424 E130.04431
G1 X23.987 Y33.283 E130.08037
G1 X120.171 Y33.268 E133.27946
G1 X121.452 Y33.421 E133.32237
G1 X122.776 Y34.131 E133.37234
G1 X125.487 Y36.844 E133.4999
G1 X126.199 Y38.167 E133.54987
G1 X126.34 Y39.242 E133.58594
G1 X126.347 Y135.64 E136.79215
G1 X126.206 Y136.715 E136.82821
G1 X125.494 Y138.038 E136.87818
G1 X122.779 Y140.751 E137.00584
G1 X121.455 Y141.461 E137.0558
G1 X120.174 Y141.614 E137.09871
G1 X23.856 Y141.593 E140.30226
G1 X22.898 Y141.454 E140.33446
G1 X21.592 Y140.752 E140.38378
G1 X18.875 Y138.036 E140.51155
G1 X18.165 Y136.712 E140.56152
G1 X18.012 Y135.431 E140.60443
G1 X18.035 Y39.112 E143.80801
G1 X18.174 Y38.154 E143.84021
G1 X18.876 Y36.848 E143.88952
G1 X21.589 Y34.136 E144.01711
G0 F9000 X21.832 Y34.459
G1 F1800 X23.035 Y33.812 E144.06254
G1 X24.039 Y33.68 E144.09622
G1 X120.171 Y33.668 E147.29359
G1 X121.331 Y33.809 E147.33245
G1 X122.533 Y34.454 E147.37782
G1 X125.164 Y37.087 E147.50163
G1 X125.811 Y38.29 E147.54706
G1 X125.943 Y39.294 E147.58074
G1 X125.95 Y135.588 E150.78349
G1 X125.818 Y136.592 E150.81717
G1 X125.171 Y137.795 E150.8626
G1 X122.536 Y140.428 E150.9865
G1 X121.334 Y141.073 E151.03187
G1 X120.174 Y141.214 E151.07073
G1 X23.913 Y141.197 E154.27239
G1 X23.024 Y141.068 E154.30226
G1 X21.835 Y140.429 E154.34716
G1 X19.198 Y137.793 E154.47117
G1 X18.553 Y136.591 E154.51654
G1 X18.412 Y135.431 E154.55541
G1 X18.431 Y39.169 E157.7571
G1 X18.56 Y38.28 E157.78697
G1 X19.199 Y37.091 E157.83187
G1 X21.832 Y34.459 E157.9557
G0 F9000 X22.075 Y34.782
G1 F1800 X23.158 Y34.2 E157.99659
G1 X24.091 Y34.077 E158.02789
G1 X120.171 Y34.068 E161.22352
G1 X121.209 Y34.197 E161.25831
G1 X122.29 Y34.777 E161.29911
G1 X124.841 Y37.33 E161.41915
G1 X125.423 Y38.413 E161.46004
G1 X125.546 Y39.346 E161.49134
G1 X125.553 Y135.536 E164.69064
G1 X125.43 Y136.469 E164.72194
G1 X124.848 Y137.552 E164.76283
G1 X122.293 Y140.105 E164.88296
G1 X121.212 Y140.685 E164.92376
G1 X120.174 Y140.814 E164.95855
G1 X23.97 Y140.801 E168.15831
G1 X23.15 Y140.682 E168.18587
G1 X22.078 Y140.106 E168.22635
G1 X19.521 Y137.55 E168.3466
G1 X18.941 Y136.469 E168.3874
G1 X18.812 Y135.431 E168.42219
G1 X18.827 Y39.226 E171.62198
G1 X18.946 Y38.406 E171.64954
G1 X19.522 Y37.334 E171.69002
G1 X22.075 Y34.782 E171.81008
G0 F9000 X22.318 Y35.105
G1 F1800 X23.281 Y34.588 E171.84643
G1 X24.143 Y34.474 E171.87535
G1 X120.171 Y34.468 E175.06925
G1 X121.085 Y34.585 E175.0999
G1 X122.049 Y35.102 E175.13629
G1 X124.518 Y37.573 E175.25247
G1 X125.035 Y38.536 E175.28882
G1 X125.149 Y39.398 E175.31774
G1 X125.156 Y135.484 E178.51357
G1 X125.042 Y136.346 E178.54249
G1 X124.525 Y137.309 E178.57885
G1 X122.052 Y139.78 E178.69512
G1 X121.088 Y140.297 E178.7315
G1 X120.174 Y140.414 E178.76215
G1 X24.027 Y140.405 E181.96001
G1 X23.276 Y140.296 E181.98525
G1 X22.321 Y139.783 E182.02131
G1 X19.846 Y137.309 E182.1377
G1 X19.329 Y136.345 E182.17409
G1 X19.212 Y135.431 E182.20473
G1 X19.223 Y39.283 E185.40263
G1 X19.332 Y38.532 E185.42787
G1 X19.845 Y37.577 E185.46393
G1 X22.318 Y35.105 E185.58023
G0 F9000 X22.561 Y35.428
G1 F1800 X23.403 Y34.976 E185.61201
G1 X24.196 Y34.871 E185.63862
G1 X120.171 Y34.868 E188.83076
G1 X120.964 Y34.973 E188.85736
G1 X121.806 Y35.425 E188.88915
G1 X124.195 Y37.816 E189.00157
G1 X124.647 Y38.658 E189.03335
G1 X124.752 Y39.451 E189.05996
G1 X124.759 Y135.431 E192.25226
G1 X124.654 Y136.224 E192.27887
G1 X124.202 Y137.066 E192.31065
G1 X121.809 Y139.457 E192.42317
G1 X120.967 Y139.909 E192.45495
G1 X120.174 Y140.014 E192.48156
G1 X24.084 Y140.009 E195.67752
G1 X23.402 Y139.91 E195.70045
G1 X22.564 Y139.46 E195.73208
G1 X20.169 Y137.066 E195.84471
G1 X19.717 Y136.224 E195.8765
G1 X19.612 Y135.431 E195.9031
G1 X19.619 Y39.34 E199.0991
G1 X19.718 Y38.658 E199.12202
G1 X20.168 Y37.82 E199.15366
G1 X22.561 Y35.428 E199.2662
G0 F9000 X22.804 Y35.751
G1 F1800 X23.527 Y35.363 E199.29349
G1 X24.196 Y35.271 E199.31595
G1 X120.171 Y35.268 E202.50809
G1 X120.84 Y35.36 E202.53055
G1 X121.563 Y35.748 E202.55784
G1 X123.872 Y38.059 E202.66649
G1 X124.26 Y38.782 E202.69379
G1 X124.352 Y39.451 E202.71625
G1 X124.359 Y135.431 E205.90855
G1 X124.267 Y136.1 E205.93101
G1 X123.879 Y136.823 E205.95831
G1 X121.566 Y139.134 E206.06705
G1 X120.843 Y139.522 E206.09435
G1 X120.174 Y139.614 E206.11681
G1 X24.141 Y139.613 E209.31088
G1 X23.528 Y139.524 E209.33148
G1 X22.807 Y139.137 E209.3587
G1 X20.492 Y136.823 E209.46756
G1 X20.104 Y136.1 E209.49485
G1 X20.012 Y135.431 E209.51731
G1 X20.015 Y39.397 E212.71142
G1 X20.104 Y38.784 E212.73202
G1 X20.491 Y38.063 E212.75924
G1 X22.804 Y35.751 E212.86801
G0 F9000 X23.045 Y36.076
G1 F1800 X23.653 Y35.75 E212.89096
G1 X24.196 Y35.671 E212.90921
G1 X120.171 Y35.668 E216.10135
G1 X120.714 Y35.747 E216.1196
G1 X121.322 Y36.073 E216.14254
G1 X123.547 Y38.3 E216.24725
G1 X123.873 Y38.908 E216.27019
G1 X123.952 Y39.451 E216.28844
G1 X123.959 Y135.431 E219.48075
G1 X123.88 Y135.974 E219.499
G1 X123.554 Y136.582 E219.52195
G1 X121.325 Y138.809 E219.62675
G1 X120.717 Y139.135 E219.64969
G1 X120.174 Y139.214 E219.66794
G1 X24.199 Y139.217 E222.86008
G1 X23.656 Y139.138 E222.87833
G1 X23.048 Y138.812 E222.90128
G1 X20.817 Y136.582 E223.0062
G1 X20.491 Y135.974 E223.02914
G1 X20.412 Y135.431 E223.04739
G1 X20.411 Y39.455 E226.23957
G1 X20.49 Y38.912 E226.25782
G1 X20.816 Y38.304 E226.28076
G1 X23.045 Y36.076 E226.38558
G0 F9000 X23.286 Y36.401
G1 F1800 X23.782 Y36.135 E226.4043
G1 X24.196 Y36.071 E226.41824
G1 X120.171 Y36.068 E229.61038
G1 X120.585 Y36.132 E229.62431
G1 X121.081 Y36.398 E229.64303
G1 X123.222 Y38.541 E229.74378
G1 X123.488 Y39.037 E229.7625
G1 X123.552 Y39.451 E229.77644
G1 X123.559 Y135.431 E232.96874
G1 X123.495 Y135.845 E232.98268
G1 X123.229 Y136.341 E233.0014
G1 X121.084 Y138.484 E233.10224
G1 X120.588 Y138.75 E233.12096
G1 X120.174 Y138.814 E233.1349
G1 X24.199 Y138.817 E236.32704
G1 X23.785 Y138.753 E236.34097
G1 X23.289 Y138.487 E236.35969
G1 X21.142 Y136.341 E236.46066
G1 X20.876 Y135.845 E236.47938
G1 X20.812 Y135.431 E236.49331
G1 X20.811 Y39.455 E239.68548
G1 X20.875 Y39.041 E239.69942
G1 X21.141 Y38.545 E239.71814
G1 X23.286 Y36.401 E239.81901
G0 F9000 X23.529 Y36.724
G1 F1800 X23.911 Y36.519 E239.83343
G1 X24.196 Y36.471 E239.84304
G1 X120.171 Y36.468 E243.03518
G1 X120.456 Y36.516 E243.04479
G1 X120.838 Y36.721 E243.05921
G1 X122.899 Y38.784 E243.1562
G1 X123.104 Y39.166 E243.17062
G1 X123.152 Y39.451 E243.18024
G1 X123.159 Y135.431 E246.37254
G1 X123.111 Y135.716 E246.38216
G1 X122.906 Y136.098 E246.39658
G1 X120.841 Y138.161 E246.49366
G1 X120.459 Y138.366 E246.50808
G1 X120.174 Y138.414 E246.51769
G1 X24.199 Y138.417 E249.70983
G1 X23.914 Y138.369 E249.71945
G1 X23.532 Y138.164 E249.73386
G1 X21.465 Y136.098 E249.83107
G1 X21.26 Y135.716 E249.84549
G1 X21.212 Y135.431 E249.8551
G1 X21.211 Y39.455 E253.04727
G1 X21.259 Y39.17 E253.05689
G1 X21.464 Y38.788 E253.07131
G1 X23.529 Y36.724 E253.16841
G0 F9000 X24.055 Y37.33
G1 F1800 X24.196 Y37.271 E253.1735
G1 X120.171 Y37.268 E256.36564
G1 X120.312 Y37.327 E256.37072
G1 X122.293 Y39.31 E256.46395
G1 X122.352 Y39.451 E256.46903
G1 X122.359 Y135.431 E259.66134
G1 X122.3 Y135.572 E259.66642
G1 X120.315 Y137.555 E259.75975
G1 X120.174 Y137.614 E259.76483
G1 X24.199 Y137.617 E262.95697
G1 X24.058 Y137.558 E262.96205
G1 X22.071 Y135.572 E263.05549
G1 X22.012 Y135.431 E263.06058
G1 X22.011 Y39.455 E266.25275
G1 X22.07 Y39.314 E266.25784
G1 X24.055 Y37.33 E266.35118
G0 F9000 X23.772 Y37.047
G1 F1800 X24.042 Y36.902 E266.36137
G1 X24.196 Y36.871 E266.3666
G1 X120.171 Y36.868 E269.55874
G1 X120.325 Y36.899 E269.56396
G1 X120.595 Y37.044 E269.57416
G1 X122.576 Y39.027 E269.66739
G1 X122.721 Y39.297 E269.67758
G1 X122.752 Y39.451 E269.6828
G1 X122.759 Y135.431 E272.87511
G1 X122.728 Y135.585 E272.88034
G1 X122.583 Y135.855 E272.89053
G1 X120.598 Y137.838 E272.98385
G1 X120.328 Y137.983 E272.99404
G1 X120.174 Y138.014 E272.99927
G1 X24.199 Y138.017 E276.19141
G1 X24.045 Y137.986 E276.19663
G1 X23.775 Y137.841 E276.20683
G1 X21.788 Y135.855 E276.30027
G1 X21.643 Y135.585 E276.31046
G1 X21.612 Y135.431 E276.31568
