;FLAVOR:Marlin
;TIME:6094
;Filament used: 6.58355m
;Layer height: 0.2
;MINX:29.7
;MINY:10.525
;MINZ:0.2
;MAXX:190.3
;MAXY:123.157
;MAXZ:5.4
;TARGET_MACHINE.NAME:Creality Ender-3 V3 SE
;Generated with Cura_SteamEngine 5.8.1
M82 ;absolute extrusion mode
M220 S100 ;Reset Feedrate
M221 S100 ;Reset Flowrate

G28 ;Home

M420 S1; Use saved mesh leveling data

G92 E0 ;Reset Extruder
G1 Z2.0 F3000 ;Move Z Axis up
G1 X-3 Y20 Z0.28 F5000.0 ;Move to start position
M190 S65 ; Set bed temperature and wait
M109 S205.0 ; Set hotend temperature and wait
G1 X-3 Y100.0 Z0.28 F1500.0 E15 ;Draw the first line
G1 X-2 Y100.0 Z0.28 F5000.0 ;Move to side a little
G1 X-2 Y20 Z0.28 F1500.0 E30 ;Draw the second line
G92 E0 ;Reset Extruder
G1 E-1.0000 F1800 ;Retract a bit
G1 Z2.0 F3000 ;Move Z Axis up
G1 E0.0000 F1800 

G92 E0
G92 E0
G1 F2400 E-0.8
;LAYER_COUNT:26
;LAYER:0
M107
G1 F300 Z0.4
G0 F9000 X30.467 Y16.574 Z0.4
;TYPE:SKIRT
G1 F300 Z0.2
G1 F2400 E0
G1 F1800 X31.822 Y14.846 E0.07304
G1 X34.5 Y12.105 E0.20049
G1 X36.863 Y10.81 E0.29011
G1 X38.7 Y10.568 E0.35174
G1 X181.759 Y10.525 E5.1099
G1 X183.944 Y11.186 E5.18583
G1 X185.653 Y12.276 E5.25325
G1 X188.809 Y15.489 E5.40304
G1 X190.013 Y17.777 E5.48903
G1 X190.239 Y19.307 E5.54047
G1 X190.3 Y114.54 E8.70794
G1 X189.533 Y117.108 E8.79708
G1 X188.178 Y118.836 E8.87011
G1 X185.5 Y121.577 E8.99757
G1 X183.134 Y122.873 E9.0873
G1 X181.296 Y123.115 E9.14896
G1 X38.241 Y123.157 E13.90698
G1 X36.056 Y122.496 E13.98291
G1 X34.347 Y121.406 E14.05033
G1 X31.191 Y118.193 E14.20012
G1 X29.987 Y115.905 E14.28612
G1 X29.761 Y114.375 E14.33756
G1 X29.7 Y19.142 E17.50502
G1 X30.467 Y16.574 E17.59416
G0 F9000 X30.829 Y16.761
G1 F1800 X32.108 Y15.126 E17.6632
G1 X34.745 Y12.427 E17.78871
G1 X36.989 Y11.197 E17.87382
G1 X38.752 Y10.965 E17.93296
G1 X181.699 Y10.925 E22.6874
G1 X183.777 Y11.554 E22.75961
G1 X185.401 Y12.589 E22.82366
G1 X188.482 Y15.726 E22.9699
G1 X189.627 Y17.902 E23.05169
G1 X189.843 Y19.365 E23.10087
G1 X189.9 Y114.482 E26.26448
G1 X189.171 Y116.921 E26.34915
G1 X187.892 Y118.556 E26.41819
G1 X185.255 Y121.255 E26.54369
G1 X183.008 Y122.486 E26.62891
G1 X181.244 Y122.718 E26.68808
G1 X38.301 Y122.757 E31.44239
G1 X36.223 Y122.128 E31.5146
G1 X34.599 Y121.093 E31.57865
G1 X31.518 Y117.956 E31.72489
G1 X30.373 Y115.78 E31.80668
G1 X30.157 Y114.317 E31.85586
G1 X30.1 Y19.2 E35.01947
G1 X30.829 Y16.761 E35.10413
G0 F9000 X31.191 Y16.947
G1 F1800 X32.394 Y15.406 E35.16916
G1 X34.99 Y12.749 E35.29271
G1 X37.117 Y11.583 E35.37338
G1 X38.752 Y11.365 E35.42825
G1 X181.639 Y11.325 E40.18069
G1 X183.61 Y11.922 E40.24918
G1 X185.149 Y12.902 E40.30987
G1 X188.155 Y15.963 E40.45256
G1 X189.241 Y18.027 E40.53013
G1 X189.447 Y19.423 E40.57707
G1 X189.5 Y114.424 E43.73681
G1 X188.809 Y116.735 E43.81704
G1 X187.606 Y118.276 E43.88206
G1 X185.01 Y120.933 E44.00561
G1 X182.88 Y122.1 E44.08639
G1 X181.244 Y122.318 E44.14129
G1 X38.361 Y122.357 E48.8936
G1 X36.39 Y121.76 E48.96209
G1 X34.851 Y120.78 E49.02278
G1 X31.845 Y117.719 E49.16547
G1 X30.759 Y115.655 E49.24304
G1 X30.553 Y114.259 E49.28998
G1 X30.5 Y19.258 E52.44972
G1 X31.191 Y16.947 E52.52995
G0 F9000 X31.552 Y17.135
G1 F1800 X32.68 Y15.686 E52.59102
G1 X35.235 Y13.071 E52.71262
G1 X37.243 Y11.97 E52.78879
G1 X38.805 Y11.762 E52.8412
G1 X181.579 Y11.725 E57.58988
G1 X183.443 Y12.29 E57.65467
G1 X184.897 Y13.215 E57.71198
G1 X187.828 Y16.2 E57.85112
G1 X188.855 Y18.152 E57.92448
G1 X189.051 Y19.481 E57.96917
G1 X189.1 Y114.366 E61.12505
G1 X188.448 Y116.547 E61.20077
G1 X187.32 Y117.996 E61.26184
G1 X184.765 Y120.611 E61.38344
G1 X182.754 Y121.713 E61.45971
G1 X181.191 Y121.921 E61.51215
G1 X38.421 Y121.957 E66.2607
G1 X36.557 Y121.392 E66.32549
G1 X35.103 Y120.467 E66.3828
G1 X32.172 Y117.482 E66.52194
G1 X31.145 Y115.53 E66.59531
G1 X30.949 Y114.201 E66.63999
G1 X30.9 Y19.316 E69.79588
G1 X31.552 Y17.135 E69.87159
G0 F9000 X31.914 Y17.321
G1 F1800 X32.966 Y15.966 E69.92864
G1 X35.48 Y13.393 E70.04829
G1 X37.371 Y12.356 E70.12002
G1 X38.805 Y12.162 E70.16815
G1 X181.519 Y12.125 E74.91484
G1 X183.273 Y12.657 E74.9758
G1 X184.647 Y13.531 E75.02996
G1 X187.501 Y16.437 E75.16543
G1 X188.469 Y18.277 E75.23458
G1 X188.655 Y19.539 E75.27701
G1 X188.7 Y114.308 E78.42904
G1 X188.086 Y116.361 E78.50031
G1 X187.034 Y117.716 E78.55737
G1 X184.52 Y120.289 E78.67702
G1 X182.628 Y121.326 E78.74878
G1 X181.138 Y121.524 E78.79877
G1 X38.481 Y121.557 E83.54356
G1 X36.727 Y121.025 E83.60452
G1 X35.353 Y120.151 E83.65869
G1 X32.499 Y117.245 E83.79416
G1 X31.531 Y115.405 E83.86331
G1 X31.345 Y114.143 E83.90574
G1 X31.3 Y19.374 E87.05777
G1 X31.914 Y17.321 E87.12904
G0 F9000 X32.276 Y17.507
G1 F1800 X33.252 Y16.246 E87.18207
G1 X35.725 Y13.715 E87.29977
G1 X37.499 Y12.742 E87.36706
G1 X38.805 Y12.562 E87.41091
G1 X181.459 Y12.525 E92.1556
G1 X183.103 Y13.024 E92.21275
G1 X184.397 Y13.847 E92.26375
G1 X187.174 Y16.674 E92.39555
G1 X188.083 Y18.402 E92.4605
G1 X188.259 Y19.597 E92.50067
G1 X188.3 Y114.25 E95.64884
G1 X187.724 Y116.175 E95.71567
G1 X186.748 Y117.436 E95.76871
G1 X184.275 Y119.967 E95.8864
G1 X182.5 Y120.94 E95.95373
G1 X181.138 Y121.124 E95.99944
G1 X38.541 Y121.157 E100.74224
G1 X36.897 Y120.658 E100.79938
G1 X35.603 Y119.835 E100.85038
G1 X32.826 Y117.008 E100.98219
G1 X31.917 Y115.28 E101.04713
G1 X31.741 Y114.085 E101.0873
G1 X31.7 Y19.432 E104.23547
G1 X32.276 Y17.507 E104.3023
G0 F9000 X32.638 Y17.693
G1 F1800 X33.538 Y16.526 E104.35132
G1 X35.97 Y14.037 E104.46706
G1 X37.627 Y13.128 E104.52992
G1 X38.805 Y12.962 E104.56949
G1 X181.399 Y12.925 E109.31219
G1 X182.933 Y13.391 E109.36551
G1 X184.147 Y14.163 E109.41336
G1 X186.847 Y16.911 E109.54149
G1 X187.697 Y18.527 E109.60222
G1 X187.863 Y19.655 E109.64015
G1 X187.9 Y114.192 E112.78446
G1 X187.362 Y115.989 E112.84685
G1 X186.462 Y117.156 E112.89587
G1 X184.03 Y119.645 E113.01161
G1 X182.372 Y120.554 E113.0745
G1 X181.138 Y120.724 E113.11593
G1 X38.601 Y120.757 E117.85673
G1 X37.067 Y120.291 E117.91005
G1 X35.853 Y119.519 E117.9579
G1 X33.153 Y116.771 E118.08603
G1 X32.303 Y115.155 E118.14676
G1 X32.137 Y114.027 E118.18469
G1 X32.1 Y19.49 E121.329
G1 X32.638 Y17.693 E121.39139
G0 F9000 X33 Y17.879
G1 F1800 X33.824 Y16.806 E121.43639
G1 X36.215 Y14.359 E121.55018
G1 X37.755 Y13.514 E121.6086
G1 X38.805 Y13.362 E121.64389
G1 X181.339 Y13.325 E126.38459
G1 X182.763 Y13.758 E126.43409
G1 X183.897 Y14.479 E126.47879
G1 X186.52 Y17.148 E126.60325
G1 X187.311 Y18.652 E126.65977
G1 X187.467 Y19.713 E126.69544
G1 X187.5 Y114.134 E129.8359
G1 X187 Y115.803 E129.89384
G1 X186.176 Y116.876 E129.93884
G1 X183.785 Y119.323 E130.05263
G1 X182.244 Y120.168 E130.11108
G1 X181.138 Y120.324 E130.14823
G1 X38.661 Y120.357 E134.88704
G1 X37.237 Y119.924 E134.93654
G1 X36.103 Y119.203 E134.98124
G1 X33.48 Y116.534 E135.1057
G1 X32.689 Y115.03 E135.16222
G1 X32.533 Y113.969 E135.19789
G1 X32.5 Y19.548 E138.33835
G1 X33 Y17.879 E138.39629
G0 F9000 X33.362 Y18.065
G1 F1800 X34.11 Y17.086 E138.43727
G1 X36.46 Y14.681 E138.54911
G1 X37.884 Y13.9 E138.60313
G1 X38.862 Y13.758 E138.636
G1 X181.279 Y13.725 E143.37281
G1 X182.593 Y14.125 E143.41849
G1 X183.647 Y14.795 E143.46003
G1 X186.193 Y17.385 E143.58083
G1 X186.925 Y18.777 E143.63313
G1 X187.071 Y19.771 E143.66655
G1 X187.1 Y114.076 E146.80315
G1 X186.638 Y115.617 E146.85665
G1 X185.89 Y116.596 E146.89763
G1 X183.54 Y119.001 E147.00947
G1 X182.116 Y119.782 E147.06349
G1 X181.138 Y119.924 E147.09636
G1 X38.721 Y119.957 E151.83317
G1 X37.407 Y119.557 E151.87885
G1 X36.353 Y118.887 E151.92039
G1 X33.807 Y116.297 E152.04119
G1 X33.075 Y114.905 E152.0935
G1 X32.929 Y113.911 E152.12691
G1 X32.9 Y19.606 E155.26351
G1 X33.362 Y18.065 E155.31702
G0 F9000 X33.724 Y18.249
G1 F1800 X34.396 Y17.366 E155.35392
G1 X36.705 Y15.003 E155.46381
G1 X38.013 Y14.286 E155.51342
G1 X38.92 Y14.154 E155.5439
G1 X181.218 Y14.125 E160.27675
G1 X182.426 Y14.493 E160.31876
G1 X183.396 Y15.109 E160.35697
G1 X185.866 Y17.622 E160.47417
G1 X186.539 Y18.902 E160.52227
G1 X186.675 Y19.829 E160.55343
G1 X186.7 Y114.018 E163.68617
G1 X186.276 Y115.433 E163.7353
G1 X185.604 Y116.316 E163.77221
G1 X183.295 Y118.679 E163.88209
G1 X181.987 Y119.396 E163.93171
G1 X181.08 Y119.528 E163.96219
G1 X38.782 Y119.557 E168.69504
G1 X37.574 Y119.189 E168.73704
G1 X36.604 Y118.573 E168.77526
G1 X34.134 Y116.06 E168.89246
G1 X33.461 Y114.78 E168.94056
G1 X33.325 Y113.853 E168.97172
G1 X33.3 Y19.664 E172.10446
G1 X33.724 Y18.249 E172.15359
G0 F9000 X34.086 Y18.433
G1 F1800 X34.682 Y17.646 E172.18642
G1 X36.95 Y15.325 E172.29436
G1 X38.142 Y14.672 E172.33956
G1 X38.978 Y14.55 E172.36766
G1 X181.157 Y14.525 E177.09655
G1 X182.257 Y14.86 E177.1348
G1 X183.146 Y15.425 E177.16983
G1 X185.539 Y17.859 E177.28336
G1 X186.153 Y19.027 E177.32725
G1 X186.279 Y19.887 E177.35616
G1 X186.3 Y113.96 E180.48504
G1 X185.914 Y115.249 E180.52979
G1 X185.318 Y116.036 E180.56263
G1 X183.05 Y118.357 E180.67056
G1 X181.858 Y119.01 E180.71577
G1 X181.022 Y119.132 E180.74387
G1 X38.843 Y119.157 E185.47276
G1 X37.743 Y118.822 E185.511
G1 X36.854 Y118.257 E185.54604
G1 X34.461 Y115.823 E185.65957
G1 X33.847 Y114.655 E185.70346
G1 X33.721 Y113.795 E185.73236
G1 X33.7 Y19.722 E188.86125
G1 X34.086 Y18.433 E188.906
G0 F9000 X34.448 Y18.618
G1 F1800 X35.001 Y17.888 E188.93646
G1 X37.195 Y15.647 E189.04077
G1 X38.271 Y15.058 E189.08157
G1 X39.036 Y14.946 E189.10728
G1 X181.096 Y14.925 E193.83222
G1 X182.09 Y15.228 E193.86678
G1 X182.895 Y15.739 E193.89849
G1 X185.212 Y18.096 E194.00842
G1 X185.767 Y19.152 E194.0481
G1 X185.883 Y19.945 E194.07476
G1 X185.9 Y113.902 E197.19978
G1 X185.552 Y115.064 E197.24012
G1 X184.999 Y115.794 E197.27058
G1 X182.805 Y118.035 E197.37489
G1 X181.729 Y118.624 E197.41569
G1 X180.964 Y118.736 E197.44141
G1 X38.904 Y118.757 E202.16634
G1 X37.91 Y118.454 E202.20091
G1 X37.105 Y117.943 E202.23262
G1 X34.788 Y115.586 E202.34255
G1 X34.233 Y114.53 E202.38223
G1 X34.117 Y113.737 E202.40888
G1 X34.1 Y19.78 E205.5339
G1 X34.448 Y18.618 E205.57425
G0 F9000 X34.81 Y18.802
G1 F1800 X35.287 Y18.168 E205.60064
G1 X37.44 Y15.969 E205.703
G1 X38.4 Y15.444 E205.73939
G1 X39.094 Y15.342 E205.76272
G1 X181.035 Y15.325 E210.4837
G1 X181.921 Y15.595 E210.5145
G1 X182.645 Y16.055 E210.54303
G1 X184.885 Y18.333 E210.64929
G1 X185.382 Y19.278 E210.6848
G1 X185.483 Y19.945 E210.70724
G1 X185.5 Y113.844 E213.83034
G1 X185.19 Y114.88 E213.8663
G1 X184.713 Y115.514 E213.89269
G1 X182.56 Y117.713 E213.99505
G1 X181.6 Y118.238 E214.03144
G1 X180.906 Y118.34 E214.05477
G1 X38.965 Y118.357 E218.77575
G1 X38.079 Y118.087 E218.80656
G1 X37.355 Y117.627 E218.83508
G1 X35.115 Y115.349 E218.94135
G1 X34.618 Y114.404 E218.97686
G1 X34.517 Y113.737 E218.9993
G1 X34.5 Y19.838 E222.12239
G1 X34.81 Y18.802 E222.15836
G0 F9000 X35.172 Y18.987
G1 F1800 X35.607 Y18.409 E222.18242
G1 X37.685 Y16.291 E222.2811
G1 X38.529 Y15.83 E222.31309
G1 X39.152 Y15.738 E222.33404
G1 X180.974 Y15.725 E227.05105
G1 X181.752 Y15.962 E227.07811
G1 X182.395 Y16.371 E227.10345
G1 X184.558 Y18.57 E227.20604
G1 X184.996 Y19.403 E227.23734
G1 X185.087 Y20.005 E227.25759
G1 X185.1 Y113.786 E230.37676
G1 X184.828 Y114.695 E230.40832
G1 X184.393 Y115.273 E230.43238
G1 X182.315 Y117.391 E230.53107
G1 X181.471 Y117.852 E230.56306
G1 X180.848 Y117.944 E230.584
G1 X39.026 Y117.957 E235.30102
G1 X38.248 Y117.72 E235.32807
G1 X37.605 Y117.311 E235.35342
G1 X35.442 Y115.112 E235.45601
G1 X35.004 Y114.279 E235.48731
G1 X34.913 Y113.677 E235.50756
G1 X34.9 Y19.896 E238.62673
G1 X35.172 Y18.987 E238.65829
G0 F9000 X35.534 Y19.171
G1 F1800 X35.893 Y18.689 E238.67828
G1 X37.929 Y16.613 E238.77499
G1 X38.657 Y16.216 E238.80257
G1 X39.211 Y16.134 E238.8212
G1 X180.913 Y16.125 E243.53422
G1 X181.585 Y16.33 E243.55759
G1 X182.144 Y16.685 E243.57962
G1 X184.231 Y18.807 E243.67861
G1 X184.61 Y19.528 E243.7057
G1 X184.691 Y20.065 E243.72376
G1 X184.7 Y113.728 E246.83901
G1 X184.466 Y114.511 E246.86619
G1 X184.107 Y114.993 E246.88618
G1 X182.071 Y117.069 E246.98289
G1 X181.343 Y117.466 E247.01047
G1 X180.789 Y117.548 E247.0291
G1 X39.087 Y117.557 E251.74212
G1 X38.415 Y117.352 E251.76549
G1 X37.856 Y116.997 E251.78752
G1 X35.769 Y114.875 E251.88651
G1 X35.39 Y114.154 E251.9136
G1 X35.309 Y113.617 E251.93166
G1 X35.3 Y19.954 E255.04691
G1 X35.534 Y19.171 E255.07409
G0 F9000 X35.897 Y19.353
G1 F1800 X36.179 Y18.969 E255.08993
G1 X38.175 Y16.934 E255.18474
G1 X38.784 Y16.602 E255.20781
G1 X39.27 Y16.53 E255.22415
G1 X180.852 Y16.525 E259.93319
G1 X181.419 Y16.698 E259.95291
G1 X181.889 Y16.997 E259.97143
G1 X183.905 Y19.046 E260.06704
G1 X184.224 Y19.653 E260.08985
G1 X184.295 Y20.125 E260.10572
G1 X184.3 Y113.67 E263.21704
G1 X184.103 Y114.329 E263.23992
G1 X183.821 Y114.713 E263.25576
G1 X181.825 Y116.748 E263.35057
G1 X181.216 Y117.08 E263.37364
G1 X180.73 Y117.152 E263.38998
G1 X39.148 Y117.157 E268.09902
G1 X38.581 Y116.984 E268.11873
G1 X38.111 Y116.685 E268.13726
G1 X36.095 Y114.636 E268.23287
G1 X35.776 Y114.029 E268.25568
G1 X35.705 Y113.557 E268.27155
G1 X35.7 Y20.012 E271.38287
G1 X35.897 Y19.353 E271.40575
G0 F9000 X36.26 Y19.536
G1 F1800 X36.502 Y19.206 E271.41936
G1 X38.417 Y17.258 E271.51021
G1 X38.912 Y16.988 E271.52897
G1 X39.329 Y16.926 E271.54299
G1 X180.791 Y16.925 E276.24803
G1 X181.25 Y17.065 E276.26399
G1 X181.637 Y17.311 E276.27925
G1 X183.579 Y19.285 E276.37135
G1 X183.838 Y19.778 E276.38987
G1 X183.899 Y20.184 E276.40353
G1 X183.9 Y113.612 E279.51095
G1 X183.74 Y114.146 E279.52949
G1 X183.498 Y114.476 E279.5431
G1 X181.583 Y116.424 E279.63396
G1 X181.088 Y116.694 E279.65271
G1 X180.671 Y116.756 E279.66674
G1 X39.209 Y116.757 E284.37178
G1 X38.75 Y116.617 E284.38774
G1 X38.363 Y116.371 E284.40299
G1 X36.421 Y114.397 E284.4951
G1 X36.162 Y113.904 E284.51362
G1 X36.101 Y113.498 E284.52727
G1 X36.1 Y20.07 E287.6347
G1 X36.26 Y19.536 E287.65324
G0 F9000 X36.623 Y19.718
G1 F1800 X36.787 Y19.486 E287.66269
G1 X38.659 Y17.582 E287.7515
G1 X39.04 Y17.374 E287.76594
G1 X39.329 Y17.326 E287.77568
G1 X180.73 Y17.325 E292.4787
G1 X181.084 Y17.433 E292.49101
G1 X181.382 Y17.623 E292.50276
G1 X183.253 Y19.524 E292.59148
G1 X183.452 Y19.903 E292.60571
G1 X183.499 Y20.184 E292.61519
G1 X183.5 Y113.554 E295.72069
G1 X183.377 Y113.964 E295.73493
G1 X183.213 Y114.196 E295.74438
G1 X181.341 Y116.1 E295.83318
G1 X180.96 Y116.308 E295.84762
G1 X180.671 Y116.356 E295.85737
G1 X39.27 Y116.357 E300.56038
G1 X38.916 Y116.249 E300.57269
G1 X38.618 Y116.059 E300.58445
G1 X36.747 Y114.158 E300.67316
G1 X36.548 Y113.779 E300.6874
G1 X36.501 Y113.498 E300.69688
G1 X36.5 Y20.128 E303.80237
G1 X36.623 Y19.718 E303.81661
G0 F9000 X37.357 Y20.046
G1 F1800 X39.186 Y18.186 E303.90337
G1 X39.329 Y18.126 E303.90853
G1 X180.669 Y18.125 E308.60952
G1 X180.812 Y18.185 E308.61468
G1 X182.642 Y20.044 E308.70144
G1 X182.699 Y20.184 E308.70647
G1 X182.7 Y113.496 E311.81004
G1 X182.643 Y113.636 E311.81506
G1 X180.814 Y115.496 E311.90183
G1 X180.671 Y115.556 E311.90698
G1 X39.331 Y115.557 E316.60797
G1 X39.188 Y115.497 E316.61313
G1 X37.358 Y113.638 E316.69989
G1 X37.301 Y113.498 E316.70492
G1 X37.3 Y20.186 E319.80849
G1 X37.357 Y20.046 E319.81352
G0 F9000 X37.072 Y19.766
G1 F1800 X38.901 Y17.906 E319.90028
G1 X39.174 Y17.757 E319.91062
G1 X39.329 Y17.726 E319.91588
G1 X180.669 Y17.725 E324.61687
G1 X180.967 Y17.816 E324.62723
G1 X181.097 Y17.904 E324.63245
G1 X182.927 Y19.763 E324.71922
G1 X183.069 Y20.033 E324.72936
G1 X183.099 Y20.184 E324.73448
G1 X183.1 Y113.496 E327.83805
G1 X183.013 Y113.787 E327.84815
G1 X182.928 Y113.916 E327.85329
G1 X181.099 Y115.776 E327.94006
G1 X180.826 Y115.925 E327.9504
G1 X180.671 Y115.956 E327.95566
G1 X39.331 Y115.957 E332.65665
G1 X39.033 Y115.866 E332.66701
G1 X38.903 Y115.778 E332.67223
G1 X37.073 Y113.919 E332.75899
G1 X36.931 Y113.649 E332.76914
G1 X36.901 Y113.498 E332.77426
G1 X36.9 Y20.186 E335.87783
G1 X36.987 Y19.895 E335.88793
G1 X37.072 Y19.766 E335.89307
G1 F2400 E335.09307
G1 F300 Z0.4
G0 F9000 X47.489 Y27.122 Z0.4
G1 F300 Z0.2
G1 F2400 E335.89307
G1 F1800 X47.65 Y27.041 E335.89906
G1 X172.35 Y27.041 E340.0466
G1 X172.469 Y27.08 E340.05077
G1 X172.55 Y27.241 E340.05676
